ZeyuZhang1901/offline_SAC_LTR/experiment_output/default_2022_07_14_12_38_11-s-42--a5f144be0a47429b86e2b2318f1d8939/progress.csv
env_steps,epoch,sac/log_pi,sac/policy_loss,sac/qf1_loss,sac/qf2_loss,sac/alpha_loss,sac/alpha,sac/average_qf1,sac/average_qf2,sac/average_target_q,sac/total_steps,average_return,average_traj_length,rollout_time,train_time,eval_time,epoch_time,_timestamp,_runtime
1000,0,-98.48100280761719,-294.56268310546875,8531.73046875,8530.609375,-74.585205078125,0.7379841804504395,228.17318725585938,228.1586151123047,258.03448486328125,1000,0.07124144,10.0,2.598512649536133,12.182538747787476,0.09474754333496094,14.87579894065857,1657773516,30
2000,1,-86.97456359863281,-384.345947265625,9268.3984375,9275.328125,-140.44851684570312,0.5486620664596558,324.8126220703125,324.76165771484375,367.13580322265625,2000,1.7026231288909912,12.167078018188477,0.0,13.869701147079468,1657773530,44
3000,2,-58.08843994140625,-430.1717834472656,19660.67578125,19672.919921875,-181.02870178222656,0.41367030143737793,370.9833679199219,370.9029235839844,415.27008056640625,3000,1.69655442237854,12.11052393913269,0.0,13.80707836151123,1657773543,57
4000,3,-15.468412399291992,-470.06048583984375,22734.84375,22760.89453125,-185.56787109375,0.31912314891815186,405.335693359375,405.3438415527344,457.9337158203125,4000,1.6174712181091309,12.08428144454956,0.0,13.701752662658691,1657773557,71
5000,4,38.54716110229492,-551.15478515625,20619.87890625,20636.69921875,-148.95620727539062,0.25322791934013367,467.8428955078125,467.8472900390625,525.097412109375,5000,1.7216286659240723,12.032003402709961,0.0,13.753632068634033,1657773571,85
6000,5,108.94158172607422,-754.5948486328125,31616.48046875,31594.88671875,-58.64318084716797,0.21419405937194824,622.0233764648438,621.619140625,695.714599609375,6000,1.656909704208374,11.97755479812622,0.0,13.634464502334595,1657773585,99
7000,6,174.69570922851562,-1260.6007080078125,108531.03125,108740.015625,43.03997802734375,0.2113943248987198,1002.7880859375,1002.9301147460938,1102.32177734375,7000,1.737100601196289,12.352521419525146,0.0,14.089622020721436,1657773599,113
8000,7,218.1455535888672,-2148.3740234375,305877.0,306746.34375,92.82374572753906,0.2712533473968506,1697.423095703125,1697.363525390625,1915.400146484375,8000,1.6824140548706055,13.17164945602417,0.0,14.854063510894775,1657773614,128
9000,8,241.0128173828125,-3895.17919921875,1060659.0,1063490.75,88.54206848144531,0.38992199301719666,3094.86328125,3094.35400390625,3499.040771484375,9000,1.87559175491333,12.744017362594604,0.0,14.619609117507935,1657773628,142
10000,9,262.150146484375,-6536.1279296875,2537472.75,2533670.5,67.22299194335938,0.5577828288078308,5284.1259765625,5284.5732421875,5942.8369140625,10000,0.06309298,10.0,1.7281708717346191,12.853341341018677,0.09927845001220703,14.680790662765503,1657773643,157
11000,10,276.1846923828125,-10387.419921875,7893176.0,7909151.0,30.988601684570312,0.7867236137390137,8450.291015625,8445.2373046875,9547.716796875,11000,1.7437288761138916,12.365511894226074,0.0,14.109240770339966,1657773657,171
12000,11,281.0864562988281,-15511.759765625,15940144.0,15974796.0,-11.60222339630127,1.0903817415237427,12669.83984375,12669.779296875,14500.0,12000,1.5942208766937256,12.806959629058838,0.0,14.401180505752563,1657773671,185
13000,12,281.8111572265625,-22530.771484375,46322760.0,46334264.0,-53.61662673950195,1.4884220361709595,18841.2421875,18839.28125,20912.24609375,13000,1.7385261058807373,12.455771923065186,0.0,14.194298028945923,1657773686,200
14000,13,279.423583984375,-30675.60546875,82601088.0,82731232.0,-93.50656127929688,2.026108980178833,25699.0859375,25698.08203125,29056.03515625,14000,1.9190387725830078,12.931297540664673,0.0,14.85033631324768,1657773700,214
15000,14,257.1100158691406,-36758.09375,116255080.0,116577264.0,-108.20510864257812,2.6716604232788086,31768.708984375,31773.94140625,35709.54296875,15000,1.7771613597869873,12.58387565612793,0.0,14.361037015914917,1657773715,229
16000,15,227.76947021484375,-40120.6328125,133824544.0,134006360.0,-98.84173583984375,3.3999178409576416,35059.671875,35054.05859375,39961.8125,16000,1.6966795921325684,13.030502080917358,0.0,14.727181673049927,1657773730,244
17000,16,199.9055938720703,-42478.44140625,121424912.0,121797840.0,-76.13134765625,4.216492176055908,37298.09375,37303.95703125,42323.578125,17000,1.6746490001678467,12.85655951499939,0.0,14.531208515167236,1657773744,258
18000,17,178.66250610351562,-43281.421875,143835040.0,143780672.0,-51.15431594848633,5.030962944030762,38644.81640625,38642.84765625,43203.34375,18000,1.735985517501831,12.850430250167847,0.0,14.586415767669678,1657773759,273
19000,18,160.03353881835938,-42990.484375,167453248.0,167319808.0,-22.675745010375977,5.696199893951416,38157.54296875,38151.3984375,43154.93359375,19000,1.8786778450012207,12.779120206832886,0.0,14.657798051834106,1657773773,287
20000,19,147.3982696533203,-42013.26171875,141194848.0,141421440.0,-0.7208887934684753,6.110884666442871,37364.7890625,37358.7265625,42485.9609375,20000,0.0,10.0,1.6884527206420898,12.628046989440918,0.09474515914916992,14.411244869232178,1657773788,302
21000,20,145.49615478515625,-41101.28515625,117782872.0,117703696.0,2.750666618347168,6.228187084197998,37214.046875,37201.07421875,41361.87890625,21000,1.6978516578674316,13.107832908630371,0.0,14.805684566497803,1657773803,317
22000,21,147.12355041503906,-40671.1484375,140431248.0,140748672.0,-0.2274247407913208,6.301540374755859,36345.7421875,36343.890625,40528.78515625,22000,1.6965429782867432,12.660906791687012,0.0,14.357449769973755,1657773817,331
23000,22,144.8784942626953,-40180.6875,87597544.0,87717416.0,3.94095778465271,6.408555030822754,35983.09375,35989.4765625,40168.4765625,23000,1.8372557163238525,12.884327173233032,0.0,14.721582889556885,1657773832,346
24000,23,148.84303283691406,-39610.2734375,101160368.0,101183520.0,-3.455502986907959,6.520176410675049,35297.0,35307.1171875,39439.1484375,24000,1.9451367855072021,12.96614122390747,0.0,14.911278009414673,1657773847,361
25000,24,144.79278564453125,-38217.65625,131964752.0,132266336.0,4.093133926391602,6.388059616088867,34493.55078125,34506.453125,38624.0,25000,1.9524662494659424,12.803157567977905,0.0,14.755623817443848,1657773861,375
26000,25,147.6904296875,-36646.671875,137855040.0,137717664.0,-1.260013222694397,6.2026896476745605,32971.76953125,32964.5859375,36999.90625,26000,1.7054212093353271,12.810678482055664,0.0,14.516099691390991,1657773876,390
27000,26,147.86700439453125,-35072.375,108943208.0,108688600.0,-1.5682094097137451,6.102772235870361,31372.765625,31359.763671875,35708.8046875,27000,1.7814960479736328,12.768755674362183,0.0,14.550251722335815,1657773890,404
28000,27,146.84315490722656,-33490.15234375,84229072.0,84359816.0,0.276088684797287,5.814246654510498,30141.54296875,30157.84765625,33854.453125,28000,2.03454852104187,12.695067644119263,0.0,14.729616165161133,1657773905,419
29000,28,150.36166381835938,-31006.91015625,64301424.0,64338104.0,-5.709787368774414,5.465771675109863,28084.13671875,28083.560546875,31391.30859375,29000,1.884401559829712,13.112121820449829,0.0,14.996523380279541,1657773920,434
30000,29,144.65817260742188,-28133.35546875,71764352.0,71794448.0,3.7975969314575195,5.0614118576049805,25188.75390625,25191.09765625,28733.744140625,30000,0.0,10.0,1.817816972732544,13.001678466796875,0.10155010223388672,14.921045541763306,1657773935,449
31000,30,146.66268920898438,-26312.087890625,63484552.0,63692724.0,0.5202735662460327,4.676225662231445,23866.4375,23866.02734375,26539.7578125,31000,1.8096647262573242,13.371005535125732,0.0,15.180670261383057,1657773950,464
32000,31,146.72024536132812,-23992.60546875,51021032.0,51099712.0,0.40933841466903687,4.319772243499756,21899.94140625,21904.76953125,24194.69140625,32000,2.1159045696258545,12.664448261260986,0.0,14.78035283088684,1657773965,479
33000,32,147.03904724121094,-21996.0078125,39184068.0,39139940.0,-0.05437129735946655,4.023098945617676,20125.986328125,20122.125,22254.43359375,33000,1.6849877834320068,12.071070671081543,0.0,13.75605845451355,1657773979,493
34000,33,148.37152099609375,-19833.67578125,35413808.0,35459752.0,-1.8037302494049072,3.7252578735351562,18055.986328125,18052.994140625,20285.095703125,34000,1.6272518634796143,12.252333879470825,0.0,13.87958574295044,1657773993,507
35000,34,146.72531127929688,-18085.498046875,22887856.0,22960854.0,0.34211212396621704,3.4745936393737793,16447.001953125,16439.1640625,18431.013671875,35000,1.921266794204712,12.972248792648315,0.0,14.893515586853027,1657774008,522
36000,35,148.08372497558594,-16493.78125,22770960.0,22759042.0,-1.26663339138031,3.2180368900299072,15084.88671875,15083.234375,16856.8828125,36000,1.7905700206756592,13.322713613510132,0.0,15.113283634185791,1657774023,537
37000,36,147.68685913085938,-14831.7587890625,20158546.0,20137886.0,-0.7343289852142334,2.9128427505493164,13531.953125,13540.103515625,15297.1142578125,37000,1.8320026397705078,12.868251323699951,0.0,14.700253963470459,1657774037,551
38000,37,148.37814331054688,-13267.181640625,13980348.0,13988619.0,-1.3143150806427002,2.595242977142334,12164.0,12168.52734375,13692.27734375,38000,1.856276273727417,13.01342225074768,0.0,14.869698524475098,1657774052,566
39000,38,144.4205322265625,-11893.318359375,14988346.0,15018333.0,2.2158451080322266,2.3608784675598145,10837.349609375,10829.662109375,12110.46875,39000,1.8270738124847412,12.91242504119873,0.0,14.739498853683472,1657774067,581
40000,39,148.3193817138672,-10387.0869140625,12079930.0,12096082.0,-0.9597383141517639,2.0697269439697266,9525.3193359375,9520.71875,10647.88671875,40000,0.25781298,10.0,1.681074857711792,12.957805395126343,0.09922552108764648,14.738105773925781,1657774082,596
41000,40,144.34640502929688,-9160.373046875,7594623.0,7611525.0,1.6096246242523193,1.8341530561447144,8362.556640625,8366.91015625,9414.08984375,41000,1.6610469818115234,12.894470453262329,0.0,14.555517435073853,1657774096,610
42000,41,147.53872680664062,-8047.4453125,6557985.5,6544194.0,-0.26226872205734253,1.6271272897720337,7359.740234375,7361.88330078125,8274.572265625,42000,1.8009042739868164,12.672446250915527,0.0,14.473350524902344,1657774111,625
43000,42,144.30392456054688,-7038.0341796875,4211365.5,4191238.25,0.9522693157196045,1.4236260652542114,6509.4775390625,6509.443359375,7247.876953125,43000,1.7839279174804688,12.487086296081543,0.0,14.271014213562012,1657774125,639
44000,43,147.32257080078125,-5985.2978515625,2863982.0,2900897.25,-0.06585308909416199,1.226487398147583,5522.4736328125,5513.6474609375,6176.94873046875,44000,1.762108564376831,12.666799783706665,0.0,14.428908348083496,1657774140,654
45000,44,145.97161865234375,-4844.052734375,1939020.125,1947104.25,0.02821756899356842,1.027819037437439,4486.2138671875,4477.3447265625,5083.85546875,45000,1.6677711009979248,12.5567467212677,0.0,14.224517822265625,1657774154,668
46000,45,145.0927734375,-4145.34375,1520592.0,1518192.375,-0.2509234845638275,0.8767231702804565,3815.45556640625,3815.46875,4287.46484375,46000,1.7461676597595215,11.990531921386719,0.0,13.73669958114624,1657774168,682
47000,46,144.97828674316406,-3536.8251953125,1190521.625,1186549.25,-0.5789516568183899,0.7509872317314148,3283.93798828125,3281.937255859375,3651.658447265625,47000,1.6407999992370605,12.432994365692139,0.0,14.0737943649292,1657774182,696
48000,47,143.53317260742188,-2947.820556640625,727229.75,718465.625,-1.5881367921829224,0.6324875354766846,2733.641357421875,2734.4931640625,3093.3017578125,48000,1.6198527812957764,12.35484766960144,0.0,13.974700450897217,1657774196,710
49000,48,144.864501953125,-2466.25927734375,357844.59375,357811.5,-1.3710747957229614,0.5262158513069153,2295.673095703125,2294.91845703125,2549.026611328125,49000,1.6953916549682617,12.694884538650513,0.0,14.390276193618774,1657774210,724
50000,49,146.1318817138672,-2064.05126953125,353270.125,352436.0625,-0.7138509750366211,0.43941739201545715,1938.9189453125,1933.439453125,2146.0693359375,50000,0.24709189,10.0,1.7131528854370117,12.709237337112427,0.08577203750610352,14.508162260055542,1657774225,739
51000,50,142.11114501953125,-1667.079833984375,203780.125,202286.703125,-4.985909461975098,0.3606486916542053,1557.944091796875,1559.3740234375,1750.04736328125,51000,1.6563770771026611,12.733964681625366,0.0,14.390341758728027,1657774239,753
52000,51,144.19711303710938,-1427.1875,149241.78125,153037.859375,-3.3574676513671875,0.30184006690979004,1344.984375,1347.77490234375,1493.9757080078125,52000,1.6938130855560303,12.813868284225464,0.0,14.507681369781494,1657774253,767
53000,52,144.6898193359375,-1122.2138671875,126604.59375,125205.8828125,-3.2283401489257812,0.2472292184829712,1043.00341796875,1043.518798828125,1185.1064453125,53000,1.8569812774658203,13.39427399635315,0.0,15.25125527381897,1657774269,783
54000,53,144.5713348388672,-945.4227294921875,60463.09375,59235.3125,-3.893383026123047,0.20127315819263458,886.662109375,885.7958984375,986.1279296875,54000,1.7163403034210205,12.40729022026062,0.0,14.12363052368164,1657774283,797
55000,54,147.778076171875,-780.7183837890625,55815.27734375,56303.734375,1.3974359035491943,0.16595910489559174,723.845458984375,725.7447509765625,820.3890380859375,55000,1.6853299140930176,12.37779450416565,0.0,14.063124418258667,1657774297,811
56000,55,146.70196533203125,-641.3424072265625,25805.5703125,26199.56640625,-0.5854500532150269,0.1402467042207718,591.9285888671875,592.0258178710938,670.3231811523438,56000,1.7039289474487305,12.663742065429688,0.0,14.367671012878418,1657774311,825
57000,56,144.54139709472656,-532.2949829101562,31983.25,31569.49609375,-5.271417617797852,0.11717710644006729,488.42926025390625,487.13970947265625,558.2283935546875,57000,1.7853858470916748,12.463348627090454,0.0,14.248734474182129,1657774326,840
58000,57,145.70947265625,-441.83331298828125,19157.296875,19556.29296875,-2.9607372283935547,0.10084103047847748,405.1690673828125,404.0801086425781,459.1458740234375,58000,1.7635674476623535,12.280360698699951,0.0,14.043928146362305,1657774340,854
59000,58,146.03134155273438,-384.8230895996094,10848.974609375,10862.455078125,-2.362771987915039,0.08722961694002151,356.0534362792969,354.45526123046875,397.3294372558594,59000,1.7539241313934326,12.50557565689087,0.0,14.259499788284302,1657774354,868
60000,59,149.00772094726562,-335.41729736328125,10775.341796875,10702.427734375,5.209528923034668,0.0746653601527214,309.63555908203125,309.6851806640625,339.0184326171875,60000,0.12618595,10.0,1.7111382484436035,12.395468711853027,0.09172630310058594,14.198333263397217,1657774368,882
61000,60,143.90576171875,-261.9384460449219,7168.3828125,7089.5205078125,-8.50718879699707,0.06396843492984772,243.11093139648438,242.13580322265625,268.28155517578125,61000,1.7653803825378418,12.443142890930176,0.0,14.208523273468018,1657774382,896
62000,61,148.50482177734375,-245.45648193359375,4789.13623046875,4896.41015625,4.344476699829102,0.0557420440018177,226.73028564453125,227.36300659179688,252.65478515625,62000,1.7890512943267822,12.438598155975342,0.0,14.227649450302124,1657774396,911
63000,62,144.04434204101562,-197.85977172851562,4074.337890625,3962.472412109375,-8.94744873046875,0.04844995588064194,179.06268310546875,178.83489990234375,198.93690490722656,63000,1.7350349426269531,12.926807880401611,0.0,14.661842823028564,1657774411,925
64000,63,148.94894409179688,-169.84356689453125,2859.783203125,2864.1416015625,6.130154132843018,0.043050479143857956,155.1398468017578,156.13490295410156,177.92138671875,64000,1.6210756301879883,12.527033805847168,0.0,14.148109436035156,1657774425,939
65000,64,141.9829559326172,-146.16268920898438,2456.37158203125,2484.583740234375,-16.394718170166016,0.03809027373790741,133.6880340576172,132.43997192382812,154.1553955078125,65000,1.7586121559143066,12.656370878219604,0.0,14.414983034133911,1657774440,954
66000,65,150.56002807617188,-149.10952758789062,2807.404052734375,2834.342041015625,12.002269744873047,0.03434179350733757,135.511962890625,136.7579345703125,147.96417236328125,66000,1.7832310199737549,12.528326511383057,0.0,14.311557531356812,1657774454,968
67000,66,147.41525268554688,-128.49037170410156,1674.3009033203125,1549.98486328125,1.4362691640853882,0.031467124819755554,115.93345642089844,115.91487884521484,129.9866180419922,67000,1.7562620639801025,12.73175573348999,0.0,14.488017797470093,1657774469,983
68000,67,153.9334716796875,-115.22869873046875,1012.6456298828125,1029.339599609375,24.431074142456055,0.029491640627384186,102.02983093261719,102.08865356445312,116.73526000976562,68000,1.5716068744659424,12.41206979751587,0.0,13.983676671981812,1657774483,997
69000,68,149.24920654296875,-109.62478637695312,1499.361572265625,1501.9349365234375,8.018024444580078,0.028301604092121124,96.94722747802734,98.30607604980469,108.06106567382812,69000,1.7442052364349365,12.488602876663208,0.0,14.232808113098145,1657774497,1011
70000,69,139.78453063964844,-98.63618469238281,895.8873901367188,870.1035766601562,-26.031070709228516,0.027114806696772575,86.25273132324219,86.88243103027344,98.6640625,70000,0.057812966,10.0,1.7952704429626465,12.646742820739746,0.0937497615814209,14.535763025283813,1657774511,1025
71000,70,150.69796752929688,-105.77577209472656,1171.1370849609375,1176.12353515625,13.325666427612305,0.02722759172320366,94.32118225097656,94.82047271728516,106.6095962524414,71000,1.793609380722046,12.53668761253357,0.0,14.330296993255615,1657774526,1040
72000,71,152.205810546875,-108.29403686523438,1508.300537109375,1445.8328857421875,18.875577926635742,0.02662583999335766,96.0318832397461,95.23593139648438,106.29875946044922,72000,1.7526447772979736,12.449645519256592,0.0,14.202290296554565,1657774540,1054
73000,72,144.24539184570312,-108.51104736328125,1081.45751953125,1073.97900390625,-9.947032928466797,0.02702350728213787,95.1731185913086,94.41156005859375,108.36454772949219,73000,1.7377197742462158,12.541717052459717,0.0,14.279436826705933,1657774554,1068
74000,73,145.81875610351562,-100.30146789550781,751.8401489257812,749.0906982421875,-4.301125526428223,0.026222065091133118,90.61149597167969,90.62879180908203,103.0270004272461,74000,1.7896008491516113,12.146558046340942,0.0,13.936158895492554,1657774568,1082
75000,74,150.11373901367188,-107.78348541259766,1014.1848754882812,977.0128784179688,11.261869430541992,0.02686765231192112,95.62112426757812,95.43009948730469,107.17485046386719,75000,1.7989554405212402,12.249878168106079,0.0,14.04883360862732,1657774582,1096
76000,75,148.6468963623047,-111.98976135253906,853.6991577148438,914.416015625,5.852187633514404,0.028625106438994408,98.73728942871094,99.28291320800781,111.30254364013672,76000,1.6608595848083496,13.113348484039307,0.0,14.774208068847656,1657774597,1111
77000,76,150.54403686523438,-112.73045349121094,1349.89111328125,1281.18896484375,12.449150085449219,0.02981632761657238,100.80923461914062,101.20187377929688,115.46060180664062,77000,1.8144640922546387,12.89211654663086,0.0,14.706580638885498,1657774612,1126
78000,77,154.56158447265625,-108.91215515136719,777.475341796875,746.95947265625,27.139755249023438,0.02762153185904026,97.54492950439453,97.40995788574219,103.97840881347656,78000,1.7189433574676514,12.768720149993896,0.0,14.487663507461548,1657774626,1140
79000,78,144.87498474121094,-102.12945556640625,851.929443359375,881.62548828125,-7.674907684326172,0.027006108313798904,92.4884033203125,92.61425018310547,103.41004943847656,79000,1.9036314487457275,12.70467495918274,0.0,14.608306407928467,1657774641,1155
80000,79,147.60116577148438,-99.14225006103516,1052.666015625,1014.8486938476562,2.149155616760254,0.02801668643951416,87.965576171875,87.55242156982422,96.5828857421875,80000,0.1379081,10.0,1.646432876586914,12.449630498886108,0.10172796249389648,14.197791337966919,1657774655,1169
81000,80,147.43341064453125,-107.06283569335938,914.0975341796875,917.6756591796875,1.528205394744873,0.029422860592603683,93.86588287353516,94.59405517578125,103.93458557128906,81000,1.7745697498321533,12.668130874633789,0.0,14.442700624465942,1657774669,1183
82000,81,145.00863647460938,-108.56721496582031,700.4393920898438,688.3621826171875,-6.9532341957092285,0.03044944442808628,96.87885284423828,97.40079498291016,110.70329284667969,82000,1.7056200504302979,12.433834075927734,0.0,14.139454126358032,1657774684,1198
83000,82,140.24624633789062,-104.43557739257812,1457.673583984375,1458.125,-23.360595703125,0.031464364379644394,91.10775756835938,90.61839294433594,104.86914825439453,83000,1.6469404697418213,12.66143274307251,0.0,14.308373212814331,1657774698,1212
84000,83,140.51535034179688,-115.57450866699219,910.57861328125,922.8029174804688,-22.288528442382812,0.03215702995657921,100.94129943847656,101.86503601074219,118.7551040649414,84000,1.6576738357543945,12.750732898712158,0.0,14.408406734466553,1657774712,1226
85000,84,148.68264770507812,-120.07644653320312,927.3472290039062,879.0638427734375,5.750735759735107,0.03278785198926926,104.93191528320312,105.16853332519531,120.6064453125,85000,1.7207701206207275,12.733326196670532,0.0,14.45409631729126,1657774727,1241
86000,85,146.23062133789062,-127.55636596679688,1836.317138671875,1811.711181640625,-2.605337619781494,0.03383203223347664,110.14424896240234,109.1146011352539,122.75293731689453,86000,1.7220377922058105,12.197225332260132,0.0,13.919263124465942,1657774741,1255
87000,86,142.3665771484375,-135.17169189453125,1283.182861328125,1267.531005859375,-15.477347373962402,0.03542398288846016,116.03605651855469,115.1126708984375,130.72119140625,87000,1.7488210201263428,12.188133955001831,0.0,13.936954975128174,1657774755,1269
88000,87,149.944091796875,-139.34896850585938,1295.964111328125,1355.187255859375,9.686321258544922,0.03725111484527588,120.52767944335938,121.0252685546875,137.78208923339844,88000,1.6605308055877686,12.492818593978882,0.0,14.15334939956665,1657774769,1283
89000,88,152.38804626464844,-160.44927978515625,922.7149047851562,897.2828979492188,17.54054832458496,0.03856312111020088,140.30960083007812,141.2470703125,155.74232482910156,89000,1.702181339263916,12.916749954223633,0.0,14.618931293487549,1657774783,1297
90000,89,144.35679626464844,-168.03756713867188,2198.687255859375,2176.091796875,-8.410839080810547,0.04150005429983139,150.12437438964844,150.74526977539062,163.0328369140625,90000,0.16309297,10.0,1.7183258533477783,12.645567655563354,0.10073137283325195,14.464624881744385,1657774798,1312
91000,90,146.552734375,-176.3791961669922,2761.161376953125,2657.75830078125,-1.390544056892395,0.044642794877290726,153.65530395507812,154.00086975097656,172.62698364257812,91000,1.7658393383026123,12.258185148239136,0.0,14.024024486541748,1657774812,1326
92000,91,148.43223571777344,-182.30075073242188,3218.10009765625,3252.0087890625,4.341458797454834,0.04825527220964432,156.60031127929688,157.99667358398438,180.27279663085938,92000,1.678443193435669,12.240704774856567,0.0,13.919147968292236,1657774826,1340
93000,92,145.48500061035156,-186.40142822265625,3068.014892578125,3221.405517578125,-4.600460529327393,0.04799784719944,164.13726806640625,162.60592651367188,188.00387573242188,93000,1.7640511989593506,12.700640201568604,0.0,14.464691400527954,1657774840,1354
94000,93,150.63140869140625,-208.30909729003906,2275.9775390625,2191.666015625,10.868396759033203,0.050141870975494385,180.78097534179688,179.45521545410156,202.69766235351562,94000,1.7065675258636475,12.293503046035767,0.0,14.000070571899414,1657774854,1368
95000,94,144.11761474609375,-214.43243408203125,4292.18701171875,4201.31640625,-8.481634140014648,0.05272909626364708,190.8704833984375,189.58135986328125,213.3778839111328,95000,1.7527647018432617,13.02494215965271,0.0,14.777706861495972,1657774869,1383
96000,95,146.40579223632812,-213.5576934814453,5613.8115234375,5414.5185546875,-1.7397170066833496,0.05351637676358223,187.48046875,189.88714599609375,221.6372833251953,96000,1.871598243713379,12.954435586929321,0.0,14.8260338306427,1657774884,1398
97000,96,148.42599487304688,-224.54481506347656,4927.9169921875,4983.5546875,4.1384196281433105,0.05490605905652046,195.86155700683594,196.31019592285156,224.85687255859375,97000,1.7240979671478271,12.62388300895691,0.0,14.347980976104736,1657774898,1412
98000,97,141.12876892089844,-206.2273406982422,3991.37060546875,3875.4208984375,-16.984275817871094,0.055420927703380585,181.58163452148438,180.2095947265625,210.80078125,98000,1.7367100715637207,12.227994680404663,0.0,13.964704751968384,1657774912,1426
99000,98,153.80746459960938,-208.7999725341797,4552.8291015625,4516.4921875,19.68353271484375,0.055495280772447586,182.99578857421875,184.6791229248047,211.38372802734375,99000,1.905240774154663,12.47278380393982,0.0,14.378024578094482,1657774927,1441
100000,99,150.23080444335938,-228.4444580078125,5922.7255859375,5875.54443359375,9.19125747680664,0.05814061313867569,198.0643768310547,196.72274780273438,223.8660125732422,100000,0.08613531,10.0,1.7172129154205322,12.609316349029541,0.09175395965576172,14.418283224105835,1657774941,1455
101000,100,143.13558959960938,-230.29774475097656,5269.650390625,5051.67041015625,-10.889562606811523,0.059730593115091324,198.7001495361328,198.3711395263672,235.25474548339844,101000,1.8072397708892822,12.367876768112183,0.0,14.175116539001465,1657774955,1469
102000,101,152.07574462890625,-253.009033203125,7094.68212890625,6788.7197265625,13.971532821655273,0.06376132369041443,219.90682983398438,221.21417236328125,253.837158203125,102000,1.7217533588409424,12.978187322616577,0.0,14.69994068145752,1657774970,1484
103000,102,149.39178466796875,-281.68817138671875,4793.6650390625,4930.2109375,6.5048627853393555,0.0658966675400734,251.38467407226562,253.0565948486328,271.9326171875,103000,1.5691876411437988,12.879726648330688,0.0,14.448914289474487,1657774984,1498
104000,103,143.90248107910156,-274.7188720703125,6168.6591796875,5922.37939453125,-8.1986665725708,0.07087419182062149,239.51849365234375,238.2861785888672,273.6183166503906,104000,1.6326189041137695,12.642756462097168,0.0,14.275375366210938,1657774999,1513
105000,104,149.67735290527344,-297.6832580566406,5887.966796875,5575.955078125,6.905511856079102,0.07583308964967728,260.48748779296875,261.0134582519531,295.605712890625,105000,1.6541979312896729,12.436805009841919,0.0,14.091002941131592,1657775013,1527
106000,105,148.76577758789062,-324.4630432128906,7898.0302734375,7365.63818359375,4.427890300750732,0.0814618244767189,278.8396911621094,278.98095703125,318.59881591796875,106000,1.8192946910858154,12.316650629043579,0.0,14.135945320129395,1657775027,1541
107000,106,145.7183380126953,-337.588623046875,11908.8671875,11797.0791015625,-3.1786928176879883,0.08373294025659561,295.51141357421875,296.5880126953125,330.1269836425781,107000,1.6036698818206787,12.504324436187744,0.0,14.107994318008423,1657775041,1555
108000,107,148.1292266845703,-354.3866271972656,15166.3271484375,14757.40625,2.705636739730835,0.09108162671327591,306.5396728515625,304.9217529296875,356.938720703125,108000,1.6569452285766602,12.807133674621582,0.0,14.464078903198242,1657775056,1570
109000,108,141.983154296875,-352.728515625,10944.740234375,10700.5595703125,-11.652527809143066,0.09801004827022552,310.44329833984375,307.4720458984375,359.98077392578125,109000,1.680884838104248,12.470278263092041,0.0,14.151163101196289,1657775070,1584
110000,109,146.87741088867188,-404.6611633300781,11124.88671875,11473.4423828125,-0.2716182470321655,0.1090778186917305,347.51702880859375,348.04498291015625,406.0547180175781,110000,0.27124143,10.0,1.828620433807373,12.328163623809814,0.09973549842834473,14.256519556045532,1657775084,1598
111000,110,146.2386016845703,-446.93206787109375,11355.587890625,11191.1298828125,-1.641365885734558,0.11581657081842422,394.249267578125,394.8919372558594,442.6256103515625,111000,1.7800633907318115,12.280455350875854,0.0,14.060518741607666,1657775098,1612
112000,111,145.75930786132812,-428.88409423828125,17202.96875,17207.953125,-2.644012928009033,0.11871077865362167,380.15130615234375,382.09149169921875,441.55804443359375,112000,1.7805564403533936,13.02162790298462,0.0,14.802184343338013,1657775113,1627
113000,112,140.10601806640625,-416.26446533203125,15062.3583984375,16043.4345703125,-14.40906047821045,0.12367596477270126,364.74481201171875,363.2391357421875,416.35992431640625,113000,1.601722002029419,12.469166278839111,0.0,14.07088828086853,1657775127,1641
114000,113,142.70045471191406,-434.99005126953125,12326.603515625,12293.08203125,-8.972721099853516,0.12407098710536957,385.03900146484375,383.507080078125,433.3771667480469,114000,1.9138872623443604,12.341132164001465,0.0,14.255019426345825,1657775141,1655
115000,114,149.8126678466797,-454.19793701171875,19138.25,18764.24609375,5.863654136657715,0.1243407279253006,406.1205749511719,408.7647399902344,450.961181640625,115000,1.6804180145263672,12.376662015914917,0.0,14.057080030441284,1657775155,1669
116000,115,139.34866333007812,-444.9530334472656,19806.435546875,19661.009765625,-15.65414047241211,0.1292593777179718,384.6147766113281,386.6020202636719,423.6647033691406,116000,1.8620095252990723,12.566028118133545,0.0,14.428037643432617,1657775170,1684
117000,116,149.66249084472656,-455.70269775390625,22730.75390625,21880.37109375,5.482273101806641,0.1275722086429596,393.42376708984375,393.1921691894531,446.1209716796875,117000,1.6793456077575684,12.350096940994263,0.0,14.029442548751831,1657775184,1698
118000,117,148.98330688476562,-458.3958740234375,34568.72265625,32651.93359375,4.002214431762695,0.13292762637138367,393.002197265625,393.4045104980469,456.4993896484375,118000,1.685114860534668,12.24556040763855,0.0,13.930675268173218,1657775198,1712
119000,118,148.36289978027344,-496.6411437988281,18367.16015625,19562.94921875,2.7077796459198,0.13713714480400085,427.7017822265625,430.521240234375,500.79241943359375,119000,1.6173689365386963,12.207120418548584,0.0,13.82448935508728,1657775212,1726
120000,119,147.2113037109375,-499.96929931640625,26671.37890625,25780.80859375,0.4208524227142334,0.13646259903907776,437.5007019042969,435.98431396484375,480.9567565917969,120000,0.0,10.0,1.810133457183838,12.531718254089355,0.08676266670227051,14.428614377975464,1657775226,1740
121000,120,147.39962768554688,-478.12841796875,24060.953125,23595.51953125,0.8023312091827393,0.13429589569568634,416.8113098144531,424.3172912597656,485.95867919921875,121000,1.6880311965942383,12.312204837799072,0.0,14.00023603439331,1657775240,1754
122000,121,147.17835998535156,-498.676025390625,29361.1015625,27574.51953125,0.35584187507629395,0.13601115345954895,435.2336730957031,437.1292724609375,517.2366333007812,122000,1.7202768325805664,12.759649515151978,0.0,14.479926347732544,1657775254,1768
123000,122,144.91363525390625,-523.464599609375,27156.62109375,28757.73828125,-4.037965774536133,0.14436568319797516,450.608154296875,449.1424865722656,516.672607421875,123000,1.8022515773773193,12.810933828353882,0.0,14.613185405731201,1657775269,1783
124000,123,145.51632690429688,-548.8002319335938,27107.017578125,25247.96875,-2.752458333969116,0.15642516314983368,487.13177490234375,485.25140380859375,542.8721923828125,124000,1.8990106582641602,12.328470706939697,0.0,14.227481365203857,1657775283,1797
125000,124,149.3824462890625,-559.9414672851562,44339.69921875,44314.71484375,4.481317043304443,0.15244163572788239,493.5123291015625,487.6441650390625,553.0968627929688,125000,1.706587314605713,12.623104333877563,0.0,14.329691648483276,1657775298,1812
126000,125,142.4111328125,-531.099365234375,20668.9375,21408.287109375,-8.532369613647461,0.15577152371406555,470.89178466796875,473.01556396484375,530.96875,126000,1.635453462600708,12.752384901046753,0.0,14.387838363647461,1657775312,1826
127000,126,144.11361694335938,-564.303466796875,18241.91796875,17855.65625,-5.221391201019287,0.16382090747356415,497.57086181640625,495.83624267578125,550.8119506835938,127000,1.6786720752716064,12.20096755027771,0.0,13.879639625549316,1657775326,1840
128000,127,144.35430908203125,-563.3132934570312,31212.978515625,29903.416015625,-4.7996063232421875,0.16298213601112366,499.6328125,490.0632019042969,558.0384521484375,128000,1.7889142036437988,12.057337284088135,0.0,13.846251487731934,1657775340,1854
129000,128,136.3829345703125,-530.0623168945312,18102.025390625,18540.7421875,-19.08268928527832,0.16573596000671387,475.81365966796875,470.9532470703125,545.1448364257812,129000,1.57033371925354,12.40001392364502,0.0,13.97034764289856,1657775354,1868
130000,129,147.4892578125,-579.1031494140625,37772.7265625,37739.1484375,0.8776159882545471,0.1663370132446289,504.89532470703125,511.38134765625,571.6691284179688,130000,0.13433442,10.0,1.6637539863586426,12.542350053787231,0.08876299858093262,14.294867038726807,1657775368,1882
131000,130,142.5270538330078,-553.8575439453125,24535.962890625,24920.421875,-8.18014144897461,0.16060559451580048,496.359619140625,493.6497497558594,564.1636962890625,131000,1.8336246013641357,12.600054502487183,0.0,14.433679103851318,1657775383,1897
132000,131,146.34030151367188,-594.0785522460938,19239.76953125,18592.4453125,-1.2027897834777832,0.1615011841058731,516.1385498046875,510.6279296875,598.233154296875,132000,1.7013540267944336,12.350727558135986,0.0,14.05208158493042,1657775397,1911
133000,132,156.79257202148438,-613.3389892578125,44444.13671875,43968.8828125,17.15526580810547,0.1734505146741867,531.5963134765625,535.6295166015625,603.3095703125,133000,1.6165869235992432,12.953059911727905,0.0,14.569646835327148,1657775411,1925
134000,133,147.25567626953125,-586.0686645507812,26780.921875,25793.4453125,0.44623374938964844,0.1745956689119339,518.1756591796875,523.9248657226562,576.6893920898438,134000,1.826777696609497,12.341639518737793,0.0,14.16841721534729,1657775425,1939
135000,134,150.3453826904297,-654.3233642578125,39089.0546875,37610.421875,5.6764302253723145,0.18326985836029053,560.4044189453125,562.197265625,658.455078125,135000,1.6635994911193848,12.868637561798096,0.0,14.53223705291748,1657775440,1954
136000,135,141.40650939941406,-634.865966796875,32896.40625,32617.296875,-8.928034782409668,0.2026757150888443,534.68701171875,539.85986328125,654.964111328125,136000,1.7428579330444336,12.372709274291992,0.0,14.115567207336426,1657775454,1968
137000,136,144.66522216796875,-735.8072509765625,52655.25,51205.3671875,-3.656829833984375,0.20882827043533325,635.8954467773438,637.485107421875,717.6055908203125,137000,1.7562739849090576,12.846509456634521,0.0,14.602783441543579,1657775469,1983
138000,137,150.93275451660156,-858.796142578125,62234.4765625,59738.30078125,5.9667463302612305,0.21932655572891235,754.1624755859375,754.498046875,851.2965087890625,138000,1.7675895690917969,12.527049541473389,0.0,14.294639110565186,1657775483,1997
139000,138,153.36270141601562,-812.56591796875,40979.890625,41411.734375,9.266992568969727,0.23306092619895935,698.955322265625,694.776611328125,794.4998168945312,139000,1.7466235160827637,12.174917936325073,0.0,13.921541452407837,1657775497,2011
140000,139,148.400634765625,-918.3755493164062,113643.171875,108563.203125,1.9911167621612549,0.2413293868303299,800.5570068359375,797.6624755859375,916.3607177734375,140000,0.36309296,10.0,1.693152666091919,12.510488986968994,0.0872344970703125,14.290876150131226,1657775511,2025
141000,140,139.5597381591797,-842.4202880859375,75013.6796875,72935.390625,-10.617376327514648,0.24002380669116974,748.0626831054688,739.7872314453125,826.5490112304688,141000,1.709989070892334,12.780804872512817,0.0,14.490793943405151,1657775526,2040
142000,141,142.6826934814453,-928.2737426757812,76969.421875,74554.1875,-5.867237091064453,0.2569170594215393,833.9412231445312,831.8524169921875,927.384765625,142000,1.7287442684173584,12.44455862045288,0.0,14.17330288887024,1657775540,2054
143000,142,150.8553009033203,-1029.18359375,78584.3984375,75857.5,4.978594779968262,0.27489539980888367,882.3800048828125,879.6032104492188,958.4488525390625,143000,1.6964685916900635,12.48921012878418,0.0,14.185678720474243,1657775554,2068
144000,143,151.0806884765625,-990.0557250976562,148914.5625,146493.6875,5.037256240844727,0.2910066246986389,853.8028564453125,847.4766235351562,980.6480712890625,144000,1.845296859741211,12.543968677520752,0.0,14.389265537261963,1657775568,2082
145000,144,150.63563537597656,-1082.591796875,123986.6640625,122969.1015625,4.51073694229126,0.28918078541755676,949.447265625,945.5524291992188,1047.436767578125,145000,1.7766413688659668,12.638152122497559,0.0,14.414793491363525,1657775583,2097
146000,145,141.52163696289062,-1022.2376098632812,83281.5234375,81406.5390625,-6.480515480041504,0.3063792884349823,894.2064208984375,891.123779296875,1023.8702392578125,146000,1.9236834049224854,12.654699325561523,0.0,14.578382730484009,1657775597,2111
147000,146,147.01324462890625,-1234.2279052734375,160540.984375,161241.8125,0.01416015625,0.34342923760414124,1055.265869140625,1056.922119140625,1228.058349609375,147000,1.8111059665679932,12.760407447814941,0.0,14.571513414382935,1657775612,2126
148000,147,150.04110717773438,-1340.12060546875,104039.984375,100709.0,3.138495922088623,0.3562837541103363,1178.129638671875,1173.8037109375,1271.0107421875,148000,1.7408478260040283,12.73298168182373,0.0,14.473829507827759,1657775626,2140
149000,148,142.86614990234375,-1265.8758544921875,166845.703125,165096.296875,-3.902172803878784,0.3890853226184845,1103.690185546875,1105.53466796875,1253.5443115234375,149000,1.757561206817627,13.004491090774536,0.0,14.762052297592163,1657775641,2155
150000,149,142.31857299804688,-1449.571044921875,151514.8125,141273.875,-4.167298316955566,0.4105833172798157,1252.34033203125,1255.626220703125,1453.785400390625,150000,0.12618595,10.0,1.8154056072235107,12.84396481513977,0.09115004539489746,14.750520467758179,1657775656,2170
151000,150,146.4371337890625,-1441.4603271484375,184122.671875,179578.25,-0.488369345664978,0.41993868350982666,1243.369873046875,1238.8963623046875,1446.2781982421875,151000,1.772970199584961,12.40447998046875,0.0,14.177450180053711,1657775670,2184
152000,151,145.4998779296875,-1605.425537109375,247087.65625,248014.625,-1.110598087310791,0.47695350646972656,1375.502197265625,1369.9580078125,1640.4580078125,152000,1.7291650772094727,12.845526218414307,0.0,14.57469129562378,1657775685,2199
153000,152,148.11056518554688,-1796.901123046875,273418.40625,264263.3125,0.6890062093734741,0.5377232432365417,1516.2069091796875,1510.150390625,1787.208740234375,153000,1.5925893783569336,12.939164400100708,0.0,14.531753778457642,1657775699,2213
154000,153,151.98597717285156,-2116.62255859375,354829.0,355689.09375,2.699683427810669,0.5819011330604553,1845.19921875,1851.739501953125,2073.121826171875,154000,1.8083152770996094,12.84464955329895,0.0,14.65296483039856,1657775714,2228
155000,154,141.76394653320312,-2119.6064453125,193267.5625,190854.90625,-2.567605972290039,0.6123998761177063,1891.194580078125,1896.265869140625,2082.20751953125,155000,1.6818222999572754,12.543867588043213,0.0,14.225689888000488,1657775728,2242
156000,155,144.54666137695312,-2221.577392578125,399550.5,396740.25,-1.0542093515396118,0.6507008671760559,1944.210205078125,1941.96728515625,2270.1416015625,156000,1.6546165943145752,12.728425979614258,0.0,14.383042573928833,1657775743,2257
157000,156,142.40530395507812,-2318.8193359375,502696.125,491529.09375,-1.7915115356445312,0.6771190166473389,2020.616943359375,2020.09423828125,2291.3916015625,157000,1.691483736038208,12.541772603988647,0.0,14.233256340026855,1657775757,2271
158000,157,146.64547729492188,-2483.43896484375,410492.5,384825.1875,-0.12985748052597046,0.6933025121688843,2154.22998046875,2165.9052734375,2405.60595703125,158000,1.6201999187469482,12.719724416732788,0.0,14.339924335479736,1657775771,2285
159000,158,153.09652709960938,-2531.017578125,363715.78125,362128.34375,1.7890582084655762,0.7456827163696289,2193.643310546875,2216.209716796875,2489.04736328125,159000,1.6690802574157715,12.769680261611938,0.0,14.43876051902771,1657775786,2300
160000,159,147.0678253173828,-2645.892822265625,440433.9375,434155.0,0.017088979482650757,0.7772630453109741,2309.197021484375,2312.77001953125,2648.2119140625,160000,0.08613531,10.0,1.7318484783172607,12.569437980651855,0.09032320976257324,14.39160966873169,1657775800,2314
161000,160,153.2030029296875,-2991.940673828125,674458.9375,637233.0625,1.1628490686416626,0.8290578722953796,2597.8486328125,2604.1748046875,2988.790771484375,161000,1.790656328201294,12.693944692611694,0.0,14.484601020812988,1657775815,2329
162000,161,152.65464782714844,-2920.84130859375,831772.5625,817171.25,1.0058095455169678,0.8370487093925476,2561.993408203125,2551.84130859375,2833.434814453125,162000,1.6720659732818604,12.687381982803345,0.0,14.359447956085205,1657775829,2343
163000,162,145.53146362304688,-2995.046875,576997.25,563395.5625,-0.21609607338905334,0.8631632328033447,2630.362060546875,2640.65087890625,2950.70654296875,163000,1.6223926544189453,12.487267971038818,0.0,14.109660625457764,1657775843,2357
164000,163,149.48095703125,-2925.11328125,884586.4375,857954.25,0.2801840901374817,0.8932100534439087,2548.7978515625,2558.58544921875,2914.75341796875,164000,1.608001947402954,12.639750242233276,0.0,14.24775218963623,1657775857,2371
165000,164,146.71176147460938,-3238.916015625,954458.1875,963524.25,-0.018061883747577667,0.9392580986022949,2813.96923828125,2803.4150390625,3170.255859375,165000,1.6351103782653809,12.819923162460327,0.0,14.455033540725708,1657775872,2386
166000,165,148.1516876220703,-3225.590087890625,1052720.0,1050573.0,0.09426556527614594,0.9214105606079102,2846.48779296875,2860.848876953125,3234.416015625,166000,1.8205077648162842,12.635738372802734,0.0,14.456246137619019,1657775886,2400
167000,166,153.18838500976562,-3253.135009765625,579418.0,581023.125,0.22087743878364563,0.9649372100830078,2839.550537109375,2838.291015625,3162.62353515625,167000,1.8149559497833252,12.889848470687866,0.0,14.704804420471191,1657775901,2415
168000,167,142.14279174804688,-3373.99658203125,1123900.25,1130828.25,0.04247576370835304,1.008783221244812,2939.865966796875,2941.28271484375,3342.67724609375,168000,1.7043828964233398,12.64558482170105,0.0,14.34996771812439,1657775915,2429
169000,168,144.7832794189453,-3614.104736328125,848460.5625,835403.25,0.16295115649700165,1.0762795209884644,3166.9775390625,3156.43212890625,3599.515380859375,169000,1.6932475566864014,12.823126792907715,0.0,14.516374349594116,1657775930,2444
170000,169,154.82101440429688,-4096.15625,1244629.5,1238593.25,-0.8546844720840454,1.1154751777648926,3555.52294921875,3550.4833984375,4054.609375,170000,0.0,10.0,1.7164368629455566,12.386900424957275,0.08922505378723145,14.192562341690063,1657775944,2458
171000,170,143.69654846191406,-4038.472412109375,1119390.0,1093912.25,0.5435854196548462,1.178863525390625,3551.41162109375,3543.12548828125,4108.28515625,171000,1.6499664783477783,12.376530408859253,0.0,14.026496887207031,1657775958,2472
172000,171,138.71160888671875,-4140.3701171875,1115319.25,1007943.375,1.940451741218567,1.2637919187545776,3574.240234375,3581.24365234375,4007.60302734375,172000,1.7499899864196777,12.526328086853027,0.0,14.276318073272705,1657775972,2486
173000,172,156.7205047607422,-4446.2734375,1996144.875,1924939.25,-2.205463171005249,1.2546888589859009,3875.3994140625,3882.5634765625,4388.0908203125,173000,1.757728099822998,12.095017671585083,0.0,13.852745771408081,1657775986,2500
174000,173,149.17523193359375,-4557.005859375,1404537.0,1424259.75,-0.5205339193344116,1.2703616619110107,4035.7216796875,4043.134765625,4565.6015625,174000,1.7686288356781006,12.464473009109497,0.0,14.233101844787598,1657776000,2514
175000,174,147.85462951660156,-4422.56396484375,1848436.5,1828369.0,-0.20981651544570923,1.2782646417617798,3856.179931640625,3853.25634765625,4513.3876953125,175000,1.682983160018921,12.798115968704224,0.0,14.481099128723145,1657776015,2529
176000,175,149.01467895507812,-4636.06494140625,1775669.75,1784692.375,-0.5773489475250244,1.3318532705307007,4071.2509765625,4051.97998046875,4554.74755859375,176000,1.7258219718933105,13.077256202697754,0.0,14.803078174591064,1657776030,2544
177000,176,153.39334106445312,-4746.37744140625,2026808.75,2017037.75,-2.200601577758789,1.4108638763427734,4159.9462890625,4174.98779296875,4698.77587890625,177000,1.896599292755127,13.219923257827759,0.0,15.116522550582886,1657776045,2559
178000,177,146.97164916992188,-4537.24560546875,1601552.5,1565579.0,0.008509323000907898,1.3501054048538208,3986.644287109375,3990.35205078125,4557.728515625,178000,1.5996832847595215,13.132399082183838,0.0,14.73208236694336,1657776060,2574
179000,178,151.1662139892578,-4774.572265625,2354106.75,2336781.5,-1.3896329402923584,1.3959118127822876,4110.603515625,4127.53125,4680.0810546875,179000,1.7132236957550049,13.102523565292358,0.0,14.815747261047363,1657776074,2588
180000,179,148.22410583496094,-4939.6533203125,2069441.0,2062323.0,-0.4528236985206604,1.4476218223571777,4290.88525390625,4286.85009765625,4835.5673828125,180000,0.0,10.0,1.6882152557373047,12.841241121292114,0.0853109359741211,14.61476731300354,1657776089,2603
181000,180,149.12413024902344,-5107.9013671875,1773470.25,1690271.625,-0.9295589923858643,1.5490121841430664,4439.00390625,4473.58251953125,5122.2578125,181000,1.6611087322235107,13.56979775428772,0.0,15.23090648651123,1657776104,2618
182000,181,149.5192413330078,-5280.1005859375,2341459.5,2255160.0,-1.0949444770812988,1.5443953275680542,4532.78564453125,4536.68359375,5267.126953125,182000,1.9151015281677246,12.95941686630249,0.0,14.874518394470215,1657776119,2633
183000,182,146.6183319091797,-5091.29150390625,2889772.5,2745135.25,0.170200377702713,1.5619540214538574,4481.5830078125,4500.349609375,5217.32763671875,183000,1.8486480712890625,13.397552728652954,0.0,15.246200799942017,1657776134,2648
184000,183,148.6576690673828,-5570.7001953125,2361170.5,2254188.25,-0.7799121737480164,1.6007740497589111,4924.1552734375,4939.572265625,5600.0068359375,184000,1.7494044303894043,12.819422245025635,0.0,14.568826675415039,1657776149,2663
185000,184,146.73965454101562,-5712.13330078125,2267487.0,2236427.25,0.11816945672035217,1.5744163990020752,5080.3935546875,5045.03857421875,5703.607421875,185000,1.5606904029846191,13.310355186462402,0.0,14.871045589447021,1657776164,2678
186000,185,151.02577209472656,-5353.39453125,1959975.5,1941779.5,-2.0126004219055176,1.6486046314239502,4665.4462890625,4660.9423828125,5328.548828125,186000,2.07834529876709,12.719241380691528,0.0,14.797586679458618,1657776179,2693
187000,186,143.40716552734375,-5707.6904296875,2568833.5,2573773.5,1.9384770393371582,1.715218186378479,4973.8623046875,4974.17333984375,5582.029296875,187000,1.6941311359405518,12.428805828094482,0.0,14.122936964035034,1657776193,2707
188000,187,139.06341552734375,-5721.75537109375,2484364.0,2470352.5,4.1990203857421875,1.6973555088043213,5045.50048828125,5036.99658203125,5804.388671875,188000,1.589369773864746,12.103292226791382,0.0,13.692662000656128,1657776206,2720
189000,188,152.73849487304688,-6140.1826171875,3354620.0,3369376.5,-3.2807226181030273,1.77128267288208,5240.4013671875,5232.166015625,6010.1171875,189000,1.6417410373687744,12.636022090911865,0.0,14.27776312828064,1657776221,2735
190000,189,142.1075439453125,-5800.4833984375,2329136.0,2448980.5,2.8759937286376953,1.8000990152359009,5156.27880859375,5148.93359375,5666.4326171875,190000,0.06666667,10.0,1.6308550834655762,12.447276830673218,0.08477401733398438,14.162905931472778,1657776235,2749
191000,190,150.00421142578125,-6426.4599609375,4408381.0,4329147.5,-1.9314134120941162,1.9019875526428223,5564.3056640625,5567.77392578125,6291.15234375,191000,1.6708688735961914,12.499756574630737,0.0,14.170625448226929,1657776249,2763
192000,191,147.05772399902344,-6554.8408203125,2033156.75,2002583.125,-0.03917795419692993,1.9713283777236938,5672.6650390625,5653.28759765625,6381.96826171875,192000,1.657599687576294,12.235820055007935,0.0,13.893419742584229,1657776263,2777
193000,192,143.4190673828125,-6398.2587890625,2639810.0,2591994.25,2.516000986099243,2.0190210342407227,5661.654296875,5630.0732421875,6308.21435546875,193000,1.716008186340332,12.525430917739868,0.0,14.2414391040802,1657776277,2791
194000,193,153.48976135253906,-7035.14013671875,3153158.25,3175597.25,-4.982487201690674,2.154902458190918,6075.2998046875,6102.4697265625,7028.1787109375,194000,1.6250884532928467,12.368873596191406,0.0,13.993962049484253,1657776291,2805
195000,194,146.32247924804688,-6681.6728515625,2582368.5,2583376.0,0.5053544044494629,2.1083085536956787,5931.4697265625,5968.5078125,6808.65869140625,195000,1.7175076007843018,12.107489109039307,0.0,13.824996709823608,1657776305,2819
196000,195,136.62940979003906,-6387.9208984375,3576562.0,3670787.25,7.839911460876465,2.1296873092651367,5645.5087890625,5614.7509765625,6609.2607421875,196000,1.7245352268218994,12.156504392623901,0.0,13.8810396194458,1657776319,2833
197000,196,145.7422637939453,-6789.9990234375,3635265.0,3651384.75,0.9524211883544922,2.132401466369629,5907.49658203125,5926.78955078125,6741.0087890625,197000,1.7151780128479004,12.160801887512207,0.0,13.875979900360107,1657776333,2847
198000,197,146.13119506835938,-6955.771484375,3763822.75,3805730.0,0.6804882287979126,2.188549757003784,6008.802734375,5990.896484375,6766.06640625,198000,1.7140607833862305,12.757384538650513,0.0,14.471445322036743,1657776347,2861
199000,198,148.5682373046875,-7221.6767578125,4238557.5,4106166.5,-1.2955621480941772,2.2844550609588623,6211.22900390625,6220.9169921875,6962.521484375,199000,1.7342193126678467,13.374011754989624,0.0,15.10823106765747,1657776362,2876
200000,199,147.00283813476562,-7871.4267578125,5988429.5,5988166.0,-0.0025371909141540527,2.455826997756958,6789.58349609375,6806.30029296875,7917.1630859375,200000,0.37855786,10.0,1.6694598197937012,12.375725269317627,0.10242295265197754,14.147608041763306,1657776377,2891
201000,200,145.86683654785156,-7865.27734375,4214977.5,4217542.0,0.9702116847038269,2.3541903495788574,6901.0263671875,6913.83740234375,7802.787109375,201000,1.5785882472991943,12.779582977294922,0.0009818077087402344,14.359153032302856,1657776391,2905
202000,201,142.79705810546875,-6946.515625,4771206.0,4849367.5,3.4174556732177734,2.254913568496704,6320.7197265625,6344.0390625,7030.81640625,202000,1.8365283012390137,13.115833044052124,0.0,14.952361345291138,1657776406,2920
203000,202,143.17271423339844,-7378.5927734375,4833026.0,4904590.0,3.105698347091675,2.2511990070343018,6553.1708984375,6550.42041015625,7382.7333984375,203000,1.7288901805877686,13.246444463729858,0.0,14.975334644317627,1657776421,2935
204000,203,142.25094604492188,-6977.689453125,5790367.5,5787777.5,3.797792434692383,2.224864959716797,5994.7060546875,5998.45458984375,6916.14990234375,204000,1.7084882259368896,13.33311915397644,0.0,15.04160737991333,1657776436,2950
205000,204,141.8887176513672,-7763.60693359375,6678418.0,6706416.0,4.250633239746094,2.2970316410064697,6860.380859375,6820.92138671875,7826.1240234375,205000,1.7801125049591064,13.368858814239502,0.0,15.148971319198608,1657776451,2965
206000,205,142.7598876953125,-7832.92431640625,4652830.0,4493278.0,3.498718738555908,2.282224416732788,6962.4580078125,6956.5185546875,7715.5576171875,206000,1.923938512802124,12.993558645248413,0.0,14.917497158050537,1657776466,2980
207000,206,146.20147705078125,-8011.44580078125,4801073.5,4729945.0,0.6604457497596741,2.286637783050537,7035.31494140625,7109.4775390625,7993.72509765625,207000,2.173412322998047,13.431189775466919,0.0,15.604602098464966,1657776482,2996
208000,207,149.70639038085938,-8506.423828125,6961790.0,6554209.0,-2.206817626953125,2.2600996494293213,7418.69140625,7435.5908203125,8255.548828125,208000,1.8314242362976074,13.354264259338379,0.0,15.185688495635986,1657776497,3011
209000,208,151.30076599121094,-8784.08984375,6134654.5,6343386.0,-3.5882577896118164,2.3032684326171875,7687.1572265625,7663.1865234375,8304.720703125,209000,1.8607287406921387,12.857753276824951,0.0,14.71848201751709,1657776512,3026
210000,209,147.29339599609375,-8476.109375,6525553.0,6282913.0,-0.25550103187561035,2.388911724090576,7336.55810546875,7285.517578125,8284.4296875,210000,0.0,10.0,1.7473456859588623,13.22815752029419,0.09390807151794434,15.069411277770996,1657776527,3041
211000,210,161.3092803955078,-9408.1767578125,6804228.0,6717069.0,-13.456336975097656,2.5609843730926514,8147.873046875,8236.0537109375,9406.0537109375,211000,1.778681755065918,12.844356536865234,0.0,14.623038291931152,1657776541,3055
212000,211,147.860595703125,-9384.310546875,8482284.0,8806529.0,-0.7995501756668091,2.5321462154388428,8133.22021484375,8183.58642578125,9500.013671875,212000,1.9117376804351807,12.912530899047852,0.0,14.824268579483032,1657776556,3070
213000,212,153.49456787109375,-9802.609375,9503552.0,9405414.0,-6.266533374786377,2.6244897842407227,8462.6123046875,8468.6962890625,10047.8046875,213000,1.764281988143921,12.973726987838745,0.0,14.738008975982666,1657776571,3085
214000,213,138.27633666992188,-9345.236328125,6064395.0,5852607.0,8.374287605285645,2.611567974090576,8389.916015625,8413.0087890625,9507.8984375,214000,1.630962610244751,12.688759803771973,0.0,14.319722414016724,1657776585,3099
215000,214,144.4688720703125,-10258.7998046875,7241268.0,7502594.5,2.379232406616211,2.559964179992676,9043.224609375,8947.576171875,10363.7958984375,215000,1.6019926071166992,12.720829725265503,0.0,14.322822332382202,1657776600,3114
216000,215,157.01626586914062,-10420.7109375,6432579.0,6089637.0,-9.834944725036621,2.6695170402526855,9324.8193359375,9345.978515625,10145.025390625,216000,1.7902071475982666,13.148570775985718,0.0,14.938777923583984,1657776614,3128
217000,216,151.97706604003906,-10421.8994140625,14618214.0,14189674.0,-4.933127403259277,2.6943888664245605,9228.427734375,9162.7333984375,10279.732421875,217000,1.7851758003234863,12.278454065322876,0.0,14.063629865646362,1657776629,3143
218000,217,141.7930145263672,-10462.54296875,10986374.0,10602718.0,5.118209362030029,2.672334909439087,9381.232421875,9366.017578125,10579.6328125,218000,1.717806339263916,11.648252964019775,0.0,13.366059303283691,1657776642,3156
219000,218,146.31288146972656,-10071.5927734375,10220261.0,10430852.0,0.665687084197998,2.6347713470458984,8974.1240234375,8902.8671875,9523.9580078125,219000,1.5543856620788574,11.325437068939209,0.0,12.879822731018066,1657776655,3169
220000,219,142.17144775390625,-8794.927734375,10935848.0,10853992.0,4.2868852615356445,2.4298300743103027,7777.1845703125,7781.4365234375,8738.470703125,220000,0.07124144,10.0,1.6579759120941162,11.238629579544067,0.08237075805664062,12.978976249694824,1657776668,3182
221000,220,153.6206817626953,-8872.5888671875,8132801.0,8220632.0,-5.564755439758301,2.317551851272583,7772.0673828125,7780.541015625,8845.6455078125,221000,1.6557374000549316,11.21394681930542,0.0,12.869684219360352,1657776681,3195
222000,221,146.2721710205078,-8310.5595703125,8401312.0,8266405.0,0.5751652121543884,2.203932762145996,7270.05615234375,7279.54248046875,8227.0810546875,222000,1.5877363681793213,11.224326133728027,0.0,12.812062501907349,1657776694,3208
223000,222,134.74362182617188,-7725.404296875,5783793.0,5827455.0,9.409893035888672,2.1549220085144043,6901.095703125,6896.513671875,7821.50439453125,223000,1.6259913444519043,11.208882331848145,0.0,12.834873676300049,1657776706,3220
224000,223,160.4091796875,-8029.9052734375,4671642.5,4398642.0,-9.664012908935547,2.0558741092681885,7106.95703125,7175.22705078125,8079.1669921875,224000,1.714393138885498,11.336202621459961,0.0,13.050595760345459,1657776719,3233
225000,224,142.80145263671875,-8086.517578125,5884015.0,5796504.5,3.1482133865356445,2.1166486740112305,7122.01220703125,7089.443359375,7991.22802734375,225000,1.6114630699157715,11.315688371658325,0.0,12.927151441574097,1657776732,3246
226000,225,152.20924377441406,-9221.0654296875,5062699.0,4998426.0,-4.217580318450928,2.247084856033325,8186.99609375,8265.712890625,9430.44921875,226000,1.634509563446045,11.303839683532715,0.0,12.93834924697876,1657776745,3259
227000,226,141.7640380859375,-8576.625,9418956.0,9138599.0,4.23874044418335,2.2468788623809814,7516.625,7571.05126953125,8999.0146484375,227000,1.7113142013549805,11.300249576568604,0.0,13.011563777923584,1657776758,3272
228000,227,156.80252075195312,-8187.8974609375,9896917.0,9746681.0,-8.004150390625,2.2626583576202393,7104.5498046875,7141.0546875,8199.21875,228000,1.6000285148620605,11.299034357070923,0.0,12.899062871932983,1657776771,3285
229000,228,156.42027282714844,-8711.919921875,7825938.0,8250118.0,-8.393622398376465,2.437608480453491,7529.0263671875,7505.58349609375,8552.302734375,229000,1.654252290725708,11.378849267959595,0.0,13.033101558685303,1657776784,3298
230000,229,150.4999237060547,-9268.51171875,6856253.5,6880999.0,-3.197472095489502,2.4932377338409424,8123.96337890625,8130.80322265625,9336.6796875,230000,0.12618595,10.0,1.723426342010498,11.30700421333313,0.08876180648803711,13.119192361831665,1657776797,3311
231000,230,136.66567993164062,-8866.185546875,7151675.0,7005731.5,9.937278747558594,2.61582350730896,7654.96875,7625.3291015625,9006.0185546875,231000,1.7081799507141113,11.339162588119507,0.0,13.047342538833618,1657776810,3324
232000,231,146.74575805664062,-9582.8515625,10310896.0,10051402.0,0.2491527795791626,2.66452693939209,8442.4560546875,8417.3330078125,9714.7431640625,232000,1.6217660903930664,11.305964946746826,0.0,12.927731037139893,1657776823,3337
233000,232,152.63821411132812,-9437.4453125,4491388.0,4601876.0,-5.302461624145508,2.561131238937378,8307.6640625,8353.0576171875,9365.181640625,233000,1.6797420978546143,11.224944353103638,0.0,12.904686450958252,1657776836,3350
234000,233,145.15150451660156,-8731.169921875,7672637.5,7794182.0,1.6552215814590454,2.448427438735962,7768.90478515625,7784.32958984375,8912.25,234000,1.578430414199829,11.28061294555664,0.0,12.85904335975647,1657776849,3363
235000,234,133.32752990722656,-8641.919921875,7067137.0,6665559.5,12.4622802734375,2.4880213737487793,7570.029296875,7496.0126953125,8536.693359375,235000,1.6530919075012207,11.241410255432129,0.0,12.89450216293335,1657776862,3376
236000,235,141.66015625,-9852.638671875,12374088.0,12455836.0,4.840828895568848,2.475759267807007,8500.5390625,8489.1796875,9821.234375,236000,1.6713716983795166,11.411852359771729,0.0,13.083224058151245,1657776875,3389
237000,236,142.02371215820312,-9590.7119140625,9876425.0,9654279.0,4.5287017822265625,2.484463691711426,8416.1416015625,8380.41015625,9375.869140625,237000,1.7234256267547607,11.244460344314575,0.0,12.967885971069336,1657776888,3402
238000,237,152.22525024414062,-10689.28515625,10076238.0,9978716.0,-4.848489761352539,2.5291781425476074,9083.1787109375,9095.69921875,10218.2314453125,238000,1.6468653678894043,11.242669343948364,0.0,12.889534711837769,1657776901,3415
239000,238,145.86026000976562,-11384.1826171875,11523402.0,11488696.0,1.101151943206787,2.6277835369110107,9857.9921875,9787.5625,11259.2880859375,239000,1.7387938499450684,11.424605369567871,0.0,13.16339921951294,1657776914,3428
240000,239,153.20831298828125,-10812.4345703125,11271291.0,10905182.0,-6.038099765777588,2.6447672843933105,9505.7421875,9432.875,11162.71875,240000,0.06309298,10.0,1.643836259841919,11.26225233078003,0.08230328559875488,12.988391876220703,1657776927,3441
241000,240,155.48995971679688,-10927.6220703125,13227552.0,13717148.0,-7.975676536560059,2.5585060119628906,9485.8515625,9545.412109375,10776.94140625,241000,1.6706113815307617,11.313005447387695,0.0,12.983616828918457,1657776940,3454
242000,241,134.0672149658203,-11039.84765625,10131492.0,10473122.0,13.327260971069336,2.8024730682373047,9603.5703125,9571.0732421875,10613.33203125,242000,1.6319079399108887,11.311559438705444,0.0,12.943467378616333,1657776953,3467
243000,242,143.478759765625,-12016.978515625,12630031.0,13053208.0,3.727196216583252,2.8820064067840576,10279.484375,10313.53515625,11956.53125,243000,1.814180612564087,11.267090797424316,0.0,13.081271409988403,1657776966,3480
244000,243,147.57049560546875,-12205.4765625,12610554.0,12328681.0,-0.6365932822227478,3.0521769523620605,10583.791015625,10623.091796875,12442.580078125,244000,1.5772764682769775,11.351703882217407,0.0,12.928980350494385,1657776979,3493
245000,244,138.71592712402344,-12052.2275390625,12258658.0,11960908.0,9.313093185424805,3.0778064727783203,10689.74609375,10699.107421875,12005.203125,245000,1.6033711433410645,11.257233381271362,0.0,12.860604524612427,1657776992,3506
246000,245,145.45944213867188,-12427.0,22256832.0,21634352.0,1.7635248899459839,3.1416101455688477,10965.6474609375,10929.142578125,12463.5654296875,246000,1.6209182739257812,11.23197889328003,0.0,12.85289716720581,1657777005,3519
247000,246,139.77447509765625,-12962.0009765625,14544102.0,14310900.0,8.260345458984375,3.1368420124053955,11328.6982421875,11348.97265625,13014.357421875,247000,1.5610685348510742,11.332987070083618,0.0,12.894055604934692,1657777018,3532
248000,247,146.6401824951172,-11863.1171875,18116328.0,17945232.0,0.3909339904785156,2.96388840675354,10542.849609375,10496.59375,11783.2900390625,248000,1.5659995079040527,11.245382070541382,0.0,12.811381578445435,1657777031,3545
249000,248,155.40579223632812,-12131.419921875,15934628.0,16018248.0,-9.110321044921875,2.95593523979187,10482.1181640625,10509.5087890625,11913.1640625,249000,1.7053937911987305,11.260398864746094,0.0,12.965792655944824,1657777044,3558
250000,249,142.68490600585938,-12715.658203125,16928940.0,16781136.0,4.928508281707764,3.1335153579711914,10852.533203125,10819.5625,12209.8359375,250000,0.0,10.0,1.598219394683838,11.252327919006348,0.0838017463684082,12.934349060058594,1657777057,3571
251000,250,149.75698852539062,-13322.294921875,14976034.0,14754050.0,-3.2293028831481934,3.2262277603149414,11380.775390625,11353.08984375,12810.5634765625,251000,1.6029691696166992,11.166795015335083,0.0,12.769764184951782,1657777069,3583
252000,251,151.33670043945312,-13625.33984375,16036753.0,15845448.0,-5.215829372406006,3.329148292541504,11858.9306640625,11944.8681640625,13760.138671875,252000,1.7423272132873535,11.121651411056519,0.0,12.863978624343872,1657777082,3596
253000,252,139.77792358398438,-15025.30078125,21788626.0,20934908.0,8.527483940124512,3.2568202018737793,13154.044921875,13126.841796875,14885.9462890625,253000,1.68412446975708,11.264008045196533,0.0,12.948132514953613,1657777095,3609
254000,253,155.90476989746094,-14236.9404296875,13010530.0,13062310.0,-10.268316268920898,3.1680760383605957,12454.8671875,12500.8173828125,14460.857421875,254000,1.65586519241333,11.284029960632324,0.0,12.939895153045654,1657777108,3622
255000,254,153.789794921875,-13315.439453125,15307078.0,15020826.0,-7.63482141494751,3.0785489082336426,11480.236328125,11444.716796875,13363.5966796875,255000,1.707876443862915,11.235947847366333,0.0,12.943824291229248,1657777121,3635
256000,255,150.96099853515625,-14198.35546875,17749092.0,17518164.0,-4.570215225219727,3.170228958129883,12398.0478515625,12410.171875,14279.4130859375,256000,1.6024878025054932,11.280048131942749,0.0,12.882535934448242,1657777134,3648
257000,256,158.26388549804688,-15076.8779296875,26333346.0,27058072.0,-13.267533302307129,3.2474892139434814,13088.080078125,13124.646484375,14514.55859375,257000,1.6279478073120117,11.328557968139648,0.0,12.95650577545166,1657777147,3661
258000,257,148.34417724609375,-15537.5830078125,16011182.0,16203932.0,-1.6124753952026367,3.3187825679779053,13555.1884765625,13509.0107421875,15321.15234375,258000,1.6953492164611816,11.254436731338501,0.0,12.949785947799683,1657777160,3674
259000,258,136.2871856689453,-15232.673828125,22854314.0,23411634.0,12.93364143371582,3.344461441040039,13349.60546875,13262.9052734375,15046.6865234375,259000,1.6952104568481445,11.274484634399414,0.0,12.969695091247559,1657777173,3687
260000,259,146.509521484375,-15063.634765625,26065498.0,25176876.0,0.5887572765350342,3.3214144706726074,12991.6591796875,12864.748046875,14972.9296875,260000,0.0,10.0,1.6179299354553223,11.28371000289917,0.09474015235900879,12.996380090713501,1657777186,3700
261000,260,167.22457885742188,-17539.546875,33186054.0,34307624.0,-25.21779441833496,3.4795022010803223,14960.056640625,14973.240234375,16846.1875,261000,1.6311166286468506,11.276950359344482,0.0,12.908066987991333,1657777199,3713
262000,261,147.23704528808594,-15701.490234375,17617132.0,17846280.0,-0.30225133895874023,3.5789101123809814,13924.8310546875,13935.3203125,16108.32421875,262000,1.692363977432251,11.306848049163818,0.0,12.99921202659607,1657777212,3726
263000,262,141.1459197998047,-15019.0703125,20777400.0,20049188.0,7.672996520996094,3.708799123764038,12838.09375,12844.2236328125,15179.265625,263000,1.5768828392028809,11.291555881500244,0.0,12.868438720703125,1657777225,3739
264000,263,146.5621795654297,-16546.408203125,26354176.0,25794968.0,0.5822010040283203,3.780189037322998,14552.70703125,14600.25390625,16211.501953125,264000,1.6164538860321045,11.247408628463745,0.0,12.86386251449585,1657777238,3752
265000,264,150.6644744873047,-17953.568359375,37320960.0,36467008.0,-4.947722911834717,3.8581361770629883,15826.4990234375,15701.8017578125,17692.5078125,265000,1.7093474864959717,11.254522323608398,0.0,12.96386981010437,1657777251,3765
266000,265,139.98919677734375,-16168.427734375,23111144.0,22929890.0,9.316471099853516,3.776787757873535,14169.455078125,14197.5390625,17110.48046875,266000,1.6084582805633545,11.290616035461426,0.0,12.89907431602478,1657777263,3777
267000,266,145.91571044921875,-15127.5146484375,32082912.0,32177608.0,1.4132471084594727,3.681689500808716,13266.2294921875,13253.0888671875,15389.0087890625,267000,1.7238082885742188,11.192230224609375,0.0,12.916038513183594,1657777276,3790
268000,267,142.2635498046875,-16421.03515625,24144392.0,24683200.0,6.205018997192383,3.706389904022217,14456.623046875,14410.41796875,16277.021484375,268000,1.6959056854248047,11.1628577709198,0.0,12.858763456344604,1657777289,3803
269000,268,146.25914001464844,-17601.330078125,21785212.0,22956698.0,1.02040433883667,3.964312791824341,15097.19140625,15125.984375,16332.6220703125,269000,1.5860037803649902,11.28717851638794,0.0,12.87318229675293,1657777302,3816
270000,269,134.21556091308594,-16250.3671875,28218900.0,27700194.0,18.320674896240234,4.191441059112549,13827.7001953125,13921.68359375,16633.716796875,270000,0.0,10.0,1.649280071258545,11.249349117279053,0.08577132225036621,12.984400510787964,1657777315,3829
271000,270,148.96456909179688,-19406.39453125,56504220.0,57099192.0,-2.7656185626983643,4.086746692657471,16952.8984375,16934.41796875,19185.3203125,271000,1.6429967880249023,11.215277194976807,0.0,12.858273983001709,1657777328,3842
272000,271,145.92393493652344,-18422.58203125,33004866.0,32130398.0,1.5310592651367188,4.14885139465332,16094.62109375,16195.10546875,19353.685546875,272000,1.544541358947754,11.284878253936768,0.0,12.829419612884521,1657777341,3855
273000,272,148.190185546875,-18971.095703125,33639108.0,32548012.0,-1.6847102642059326,4.118597030639648,16691.107421875,16669.755859375,18662.7734375,273000,1.5252573490142822,11.256617069244385,0.0,12.781874418258667,1657777354,3868
274000,273,141.37380981445312,-18541.419921875,23389684.0,22857676.0,7.901693344116211,4.073280334472656,16329.0859375,16379.56640625,18934.19921875,274000,1.6914374828338623,11.291279077529907,0.0,12.98271656036377,1657777367,3881
275000,274,151.15304565429688,-19952.87109375,42948176.0,42476248.0,-5.787543296813965,4.0291900634765625,17275.20703125,17366.51171875,20504.05078125,275000,1.5891132354736328,11.343461036682129,0.0,12.932574272155762,1657777380,3894
276000,275,138.33218383789062,-17822.453125,47101524.0,47553352.0,11.838973045349121,3.9190709590911865,15840.3955078125,15756.22265625,17299.318359375,276000,1.6977181434631348,11.348385095596313,0.0,13.046103239059448,1657777393,3907
277000,276,157.38760375976562,-20340.259765625,39118020.0,38467924.0,-14.185193061828613,3.9180307388305664,17799.728515625,17934.81640625,20081.56640625,277000,1.6604938507080078,11.325307130813599,0.0,12.985800981521606,1657777406,3920
278000,277,160.06695556640625,-18818.21875,43920696.0,44849928.0,-17.292173385620117,3.7559890747070312,16065.7890625,16172.677734375,18787.673828125,278000,1.632260799407959,11.259487390518188,0.0,12.891748189926147,1657777418,3932
279000,278,145.47862243652344,-18996.69921875,30538756.0,32446442.0,2.079174041748047,3.9221348762512207,16519.6953125,16450.607421875,18845.390625,279000,1.6144030094146729,11.336247205734253,0.0,12.950650215148926,1657777431,3945
280000,279,147.61383056640625,-20290.93359375,26928264.0,27385970.0,-0.8534340858459473,4.016179084777832,17644.7734375,17616.775390625,20159.16796875,280000,0.12090595,10.0,1.7038474082946777,11.267234325408936,0.08238863945007324,13.053470373153687,1657777444,3958
281000,280,140.58984375,-19962.81640625,76849800.0,75388944.0,8.81240463256836,3.954113006591797,17400.833984375,17264.068359375,19616.15625,281000,1.7552626132965088,11.25471830368042,0.0,13.009980916976929,1657777458,3972
282000,281,138.64938354492188,-18795.21484375,37833948.0,37895564.0,11.930428504943848,4.173225402832031,16433.4765625,16388.3203125,18975.150390625,282000,1.6199491024017334,11.245872259140015,0.0,12.865821361541748,1657777470,3984
283000,282,134.60171508789062,-20754.390625,55288996.0,55978904.0,17.81167221069336,4.2064714431762695,17777.337890625,17732.56640625,20820.763671875,283000,1.6881687641143799,11.205669164657593,0.0,12.893837928771973,1657777483,3997
284000,283,146.39334106445312,-21369.15625,24900648.0,24831482.0,0.8786695003509521,4.256134510040283,18449.01171875,18535.87109375,22153.412109375,284000,1.7348601818084717,11.31986665725708,0.0,13.054726839065552,1657777496,4010
285000,284,140.43927001953125,-21940.15625,48942316.0,49238580.0,9.399459838867188,4.189936637878418,19245.6328125,19245.1484375,22237.96484375,285000,1.6550605297088623,11.363340616226196,0.0,13.018401145935059,1657777509,4023
286000,285,146.934814453125,-19277.490234375,46517716.0,47257976.0,0.09137475490570068,4.06264591217041,17160.82421875,17135.7421875,19219.7421875,286000,1.7213170528411865,11.30467700958252,0.0,13.025994062423706,1657777522,4036
287000,286,141.26040649414062,-20316.4375,16835218.0,17801592.0,7.985696315765381,4.0202131271362305,18093.95703125,18069.076171875,20561.44140625,287000,1.7087640762329102,11.252846956253052,0.0,12.961611032485962,1657777535,4049
288000,287,140.51014709472656,-18804.63671875,22075460.0,21928332.0,8.799887657165527,3.8804361820220947,16649.109375,16664.5234375,18952.14453125,288000,1.6319613456726074,11.268188238143921,0.0,12.900149583816528,1657777548,4062
289000,288,151.04241943359375,-18466.189453125,24552540.0,25244772.0,-5.2911248207092285,3.7020928859710693,16120.544921875,16123.32421875,18606.146484375,289000,1.6703557968139648,11.258856773376465,0.0,12.92921257019043,1657777561,4075
290000,289,143.1247100830078,-19216.041015625,29714796.0,28613864.0,5.380916595458984,4.008896350860596,16722.955078125,16725.96484375,19136.12890625,290000,0.2,10.0,1.7316982746124268,11.31110668182373,0.08379530906677246,13.12660026550293,1657777574,4088
291000,290,138.21975708007812,-19142.435546875,43229784.0,44455788.0,12.674367904663086,4.235536098480225,16821.32421875,16867.03125,19130.43359375,291000,1.5905320644378662,11.277810335159302,0.0,12.868342399597168,1657777587,4101
292000,291,152.86288452148438,-21291.19140625,47610964.0,47035920.0,-8.272863388061523,4.100278377532959,18567.76953125,18566.119140625,20526.67578125,292000,1.6229138374328613,11.334635257720947,0.0,12.957549095153809,1657777600,4114
293000,292,138.3828125,-18793.244140625,38802972.0,38909588.0,12.095257759094238,4.069909572601318,16392.060546875,16361.046875,19316.09375,293000,1.7417223453521729,11.272751092910767,0.0,13.01447343826294,1657777613,4127
294000,293,156.61338806152344,-19631.595703125,47862000.0,45163292.0,-13.46903133392334,4.059535503387451,17099.46484375,17138.71875,20317.89453125,294000,1.5872368812561035,11.301009178161621,0.0,12.888246059417725,1657777626,4140
295000,294,128.76820373535156,-18174.33203125,33340616.0,34003528.0,25.857622146606445,4.129972457885742,15867.431640625,15846.3525390625,18409.3125,295000,1.6442432403564453,11.27578353881836,0.0,12.920026779174805,1657777639,4153
296000,295,146.30307006835938,-21881.1875,52582552.0,52729816.0,1.025519847869873,4.35579252243042,18961.716796875,18946.828125,21821.91015625,296000,1.6218454837799072,11.131178140640259,0.0,12.753023624420166,1657777652,4166
297000,296,152.20787048339844,-22062.1875,61865376.0,61103656.0,-7.9390363693237305,4.592528343200684,18834.19140625,19060.44921875,21743.873046875,297000,1.5800747871398926,11.19852089881897,0.0,12.778595685958862,1657777665,4179
298000,297,145.6634063720703,-20159.04296875,35442208.0,33844664.0,2.026581287384033,4.55497407913208,17387.486328125,17358.62890625,19579.9140625,298000,1.7342822551727295,11.268258094787598,0.0,13.002540349960327,1657777678,4192
299000,298,147.7129669189453,-22703.708984375,60284240.0,59716952.0,-1.0849566459655762,4.580222129821777,19926.771484375,20041.42578125,22923.86328125,299000,1.7511107921600342,11.251031160354614,0.0,13.002141952514648,1657777691,4205
300000,299,140.74032592773438,-23104.263671875,29434290.0,29244888.0,9.584367752075195,4.623398780822754,20164.0390625,20295.578125,23120.3671875,300000,0.0,10.0,1.6988611221313477,11.29282259941101,0.08676815032958984,13.078451871871948,1657777704,4218
301000,300,144.4957275390625,-22661.75390625,78546856.0,78619856.0,3.8550422191619873,4.661743640899658,19915.576171875,19743.15625,21685.97265625,301000,1.6134281158447266,11.308775186538696,0.0,12.922203302383423,1657777717,4231
302000,301,132.1534881591797,-20283.642578125,49946688.0,50580536.0,22.4007568359375,4.521406650543213,17460.98046875,17458.5,20442.185546875,302000,1.666229248046875,11.258944988250732,0.0,12.925174236297607,1657777730,4244
303000,302,134.7215118408203,-18585.291015625,35231584.0,35165564.0,18.401981353759766,4.475940227508545,15933.7412109375,15997.3203125,18335.53125,303000,1.7750129699707031,11.368219375610352,0.0,13.143232345581055,1657777743,4257
304000,303,146.55982971191406,-21493.279296875,57489156.0,56590696.0,0.6766815185546875,4.652054786682129,18916.20703125,18946.7265625,20760.49609375,304000,1.5543594360351562,11.325681686401367,0.0,12.880041122436523,1657777756,4270
305000,304,128.48617553710938,-18204.416015625,35583868.0,35647248.0,27.64304542541504,4.45088529586792,15954.736328125,15958.9814453125,17511.49609375,305000,1.6773152351379395,11.268498659133911,0.0,12.94581389427185,1657777769,4283
306000,305,144.8766632080078,-20612.662109375,40006128.0,40509348.0,3.147893190383911,4.404031276702881,17808.544921875,17697.9609375,20343.693359375,306000,1.6463966369628906,11.281928539276123,0.0,12.928325176239014,1657777782,4296
307000,306,155.63076782226562,-21477.08203125,32943160.0,31907816.0,-13.381582260131836,4.713578224182129,18235.658203125,18099.005859375,21523.4296875,307000,1.6635549068450928,11.3131103515625,0.0,12.976665258407593,1657777794,4308
308000,307,146.7781524658203,-22245.541015625,23868550.0,24928684.0,0.3456592559814453,4.749981880187988,19348.951171875,19367.0234375,22525.96875,308000,1.6364080905914307,11.301018953323364,0.0,12.937427043914795,1657777807,4321
309000,308,146.8916778564453,-21136.0390625,37969392.0,35179280.0,0.16484546661376953,4.58057165145874,18591.7421875,18626.087890625,20741.9140625,309000,1.7396881580352783,11.420806884765625,0.0,13.160495042800903,1657777821,4335
310000,309,131.97073364257812,-19693.40234375,66880888.0,67715080.0,22.79206657409668,4.556303977966309,16887.8671875,16931.1484375,19337.115234375,310000,0.12618595,10.0,1.5982415676116943,11.314781904220581,0.08379673957824707,12.996820211410522,1657777834,4348
311000,310,154.154541015625,-22767.9453125,74284768.0,75053984.0,-11.167235374450684,4.762918472290039,19952.447265625,19991.3515625,22140.91796875,311000,1.661639928817749,11.220208644866943,0.0,12.881848573684692,1657777847,4361
312000,311,141.95513916015625,-20785.83203125,71484936.0,70409048.0,7.479826927185059,4.404648780822754,18130.91015625,18104.314453125,19859.1328125,312000,1.7398030757904053,12.235437154769897,0.0,13.975240230560303,1657777860,4374
313000,312,145.1934814453125,-21460.515625,56167656.0,56722508.0,2.643792152404785,4.320988178253174,18958.51171875,19070.890625,22436.298828125,313000,1.8412199020385742,11.32598066329956,0.0,13.167200565338135,1657777874,4388
314000,313,159.63084411621094,-21604.7734375,30145402.0,29401652.0,-18.75197410583496,4.413273811340332,18800.21484375,18827.15234375,21440.916015625,314000,1.6103804111480713,11.318557262420654,0.0,12.928937673568726,1657777887,4401
315000,314,145.13088989257812,-20952.75390625,42083192.0,42588156.0,2.759016275405884,4.375876426696777,18020.484375,18151.4921875,20448.80078125,315000,1.6178138256072998,11.465162515640259,0.0,13.082976341247559,1657777900,4414
316000,315,151.41575622558594,-20345.08984375,34851592.0,37009500.0,-6.3633646965026855,4.225167751312256,17782.951171875,17800.69921875,20390.11328125,316000,1.6444525718688965,11.313710451126099,0.0,12.958163022994995,1657777913,4427
317000,316,138.660888671875,-21471.662109375,56694944.0,57456728.0,12.159016609191895,4.297657012939453,18801.267578125,18752.53515625,21172.7265625,317000,1.610797643661499,11.362694501876831,0.0,12.97349214553833,1657777926,4440
318000,317,149.70693969726562,-18348.765625,60918700.0,61416824.0,-3.8079309463500977,4.082587242126465,15300.755859375,15374.2021484375,19251.88671875,318000,1.6788465976715088,11.279354810714722,0.0,12.95820140838623,1657777939,4453
319000,318,148.78250122070312,-20974.947265625,39401244.0,40759836.0,-2.5132293701171875,4.095702171325684,18171.28515625,18171.8515625,20792.072265625,319000,1.7012403011322021,11.31386661529541,0.0,13.015106916427612,1657777952,4466
320000,319,146.47271728515625,-20716.08984375,34203376.0,35555288.0,0.7191162109375,3.911153793334961,18152.095703125,18066.556640625,20554.423828125,320000,0.19742739,10.0,1.6524059772491455,11.34297776222229,0.08676981925964355,13.082153558731079,1657777965,4479
321000,320,146.68020629882812,-19688.64453125,57249720.0,56703792.0,0.43850886821746826,3.9401023387908936,17081.27734375,17110.9765625,19509.33203125,321000,1.7174677848815918,11.404930353164673,0.0,13.122398138046265,1657777978,4492
322000,321,145.17971801757812,-18830.921875,29436180.0,28819098.0,2.4994099140167236,3.9475510120391846,16083.966796875,16191.8603515625,18569.3515625,322000,1.7535955905914307,11.396367311477661,0.0,13.149962902069092,1657777991,4505
323000,322,150.47726440429688,-20659.966796875,27659022.0,29046068.0,-4.699563980102539,3.863274097442627,18535.685546875,18658.740234375,20244.28515625,323000,1.5768811702728271,11.292662620544434,0.0,12.86954379081726,1657778004,4518
324000,323,165.54910278320312,-22136.96484375,50583968.0,50898616.0,-25.198591232299805,3.8902804851531982,19255.55859375,19306.140625,21205.1640625,324000,1.5616178512573242,11.302647352218628,0.0,12.864265203475952,1657778017,4531
325000,324,147.3061981201172,-20781.3828125,22802518.0,22437252.0,-0.4111654758453369,3.8296918869018555,18160.05078125,18110.078125,20809.8125,325000,1.6099495887756348,11.27811598777771,0.0,12.888065576553345,1657778030,4544
326000,325,136.24671936035156,-18261.064453125,30133532.0,29772328.0,14.794580459594727,3.958322286605835,15878.2939453125,15874.6572265625,18991.41796875,326000,1.5676929950714111,11.328046083450317,0.0,12.895739078521729,1657778043,4557
327000,326,147.30477905273438,-20058.6484375,36562320.0,33513268.0,-0.41936349868774414,3.9591214656829834,17056.966796875,17011.96875,19530.017578125,327000,1.7318553924560547,11.27058744430542,0.0,13.002442836761475,1657778056,4570
328000,327,143.84310913085938,-19861.798828125,46508708.0,45944652.0,4.640922546386719,4.3496198654174805,16877.375,16860.1328125,20281.02734375,328000,1.622744083404541,11.222109317779541,0.0,12.844853401184082,1657778068,4582
329000,328,155.32862854003906,-23198.19921875,31436280.0,31483052.0,-12.84603214263916,4.67577600479126,19920.23828125,19993.78515625,23138.859375,329000,1.7047696113586426,11.344765663146973,0.0,13.049535274505615,1657778081,4596
330000,329,143.43572998046875,-22762.81640625,69680000.0,71076960.0,5.638033866882324,4.8637824058532715,19790.87890625,19773.861328125,22979.46875,330000,0.07737056,10.0,1.6350035667419434,11.32383942604065,0.09774184226989746,13.05658483505249,1657778095,4609
331000,330,138.36392211914062,-23409.3203125,81824160.0,79352248.0,13.052751541137695,4.533166408538818,20813.91796875,20757.53125,23574.267578125,331000,1.6993744373321533,11.301997423171997,0.0,13.00137186050415,1657778108,4622
332000,331,150.2012176513672,-21817.89453125,28517400.0,28365144.0,-4.6585493087768555,4.285537242889404,19147.3984375,19095.125,22245.796875,332000,1.5453498363494873,11.350931882858276,0.0,12.896281719207764,1657778120,4634
333000,332,141.280029296875,-21405.5546875,80935000.0,72828008.0,8.175195693969727,4.175510883331299,18229.326171875,18313.302734375,22181.83984375,333000,1.60341477394104,11.363017797470093,0.0,12.966432571411133,1657778133,4647
334000,333,144.3382110595703,-21196.9375,37218264.0,38310356.0,3.7952394485473633,4.161271572113037,18290.359375,18350.685546875,21831.4921875,334000,1.7641196250915527,11.264978885650635,0.0,13.029098510742188,1657778146,4660
335000,334,142.35433959960938,-23127.55859375,58961376.0,58927328.0,6.818266868591309,4.339087009429932,20226.08203125,20068.591796875,22957.8671875,335000,1.6726360321044922,11.443647146224976,0.0,13.116283178329468,1657778160,4674
336000,335,140.07180786132812,-22185.8671875,56713704.0,57770096.0,10.486988067626953,4.543358325958252,19035.40625,18897.09375,22119.060546875,336000,1.5446751117706299,11.271270751953125,0.0,12.815945863723755,1657778172,4686
337000,336,135.7273712158203,-20441.240234375,54577784.0,52045872.0,17.092761993408203,4.555365562438965,17818.94921875,17954.2265625,22369.68359375,337000,1.6946983337402344,11.172343015670776,0.0,12.86704134941101,1657778185,4699
338000,337,145.03561401367188,-20012.75,73419120.0,73486832.0,2.9348654747009277,4.455038070678711,16565.484375,16610.404296875,19529.880859375,338000,1.6992261409759521,11.312828540802002,0.0,13.012054681777954,1657778198,4712
339000,338,141.07681274414062,-19647.9375,54249560.0,54482944.0,8.303589820861816,4.062820911407471,17088.89453125,17125.908203125,20309.68359375,339000,1.6421229839324951,11.312716484069824,0.0,12.95483946800232,1657778211,4725
340000,339,151.81040954589844,-21285.59375,49333816.0,51377808.0,-6.488406181335449,3.852903366088867,18391.630859375,18294.08984375,22367.767578125,340000,0.08613531,10.0,1.725106954574585,11.273519039154053,0.08377766609191895,13.082403659820557,1657778224,4738
341000,340,160.1668701171875,-20837.556640625,53932864.0,52959560.0,-18.175113677978516,3.9763574600219727,18194.525390625,18188.744140625,19644.58984375,341000,1.7557075023651123,11.30931806564331,0.0,13.065025568008423,1657778237,4751
342000,341,161.92138671875,-20654.498046875,61495712.0,60595152.0,-20.25843048095703,3.8871564865112305,17846.90625,17712.5390625,21056.41796875,342000,1.680335283279419,11.144747972488403,0.0,12.825083255767822,1657778250,4764
343000,342,147.13092041015625,-20417.5234375,58704464.0,60475648.0,-0.17770886421203613,3.8862245082855225,17514.455078125,17409.1875,20146.048828125,343000,1.750119686126709,11.148852348327637,0.0,12.898972034454346,1657778263,4777
344000,343,151.28146362304688,-21361.181640625,59314016.0,57393688.0,-5.776854515075684,3.854628324508667,18646.703125,18838.6953125,20299.71875,344000,1.648756504058838,11.288301706314087,0.0,12.937058210372925,1657778276,4790
345000,344,148.19314575195312,-18835.857421875,49684620.0,51674816.0,-1.6727049350738525,4.062977313995361,15668.837890625,15849.515625,18662.515625,345000,1.6949899196624756,11.358492374420166,0.0,13.053482294082642,1657778289,4803
346000,345,132.65097045898438,-16246.9599609375,34626652.0,33776088.0,21.212148666381836,4.385476112365723,13998.8173828125,13924.0146484375,17165.26171875,346000,1.6514091491699219,11.326954126358032,0.0,12.978363275527954,1657778302,4816
347000,346,141.1368408203125,-20554.79296875,40671132.0,40239896.0,8.34742546081543,4.152495384216309,17824.646484375,17734.06640625,19890.71875,347000,1.7062888145446777,11.316317319869995,0.0,13.022606134414673,1657778315,4829
348000,347,148.51617431640625,-22550.87109375,55929840.0,55907612.0,-2.1773719787597656,4.204265117645264,19740.796875,19742.2421875,21805.498046875,348000,1.6305654048919678,11.313983917236328,0.0,12.944549322128296,1657778328,4842
349000,348,152.43743896484375,-19808.37890625,53383312.0,54041284.0,-7.44822883605957,3.934581756591797,17351.85546875,17432.22265625,19470.048828125,349000,1.6916894912719727,11.314646482467651,0.0,13.006335973739624,1657778341,4855
350000,349,153.4792938232422,-21226.6484375,36480080.0,34797128.0,-9.166109085083008,4.115149974822998,18126.708984375,18254.107421875,21022.328125,350000,0.13333334,10.0,1.5934233665466309,11.297606468200684,0.0857696533203125,12.976799488067627,1657778354,4868
351000,350,158.2412109375,-21755.5546875,77596032.0,77612528.0,-16.50787925720215,4.342772483825684,18691.22265625,18702.10546875,20907.41796875,351000,1.5950486660003662,11.36904239654541,0.0,12.964091062545776,1657778367,4881
352000,351,148.60549926757812,-21264.796875,39388152.0,39700760.0,-2.351748466491699,4.3266921043396,18488.09375,18551.75,22225.5859375,352000,1.6999473571777344,11.343348026275635,0.0,13.04329538345337,1657778380,4894
353000,352,150.7431640625,-22916.38671875,64610288.0,62853228.0,-5.368361473083496,4.196194648742676,19654.3515625,19746.75,22019.68359375,353000,1.592440128326416,11.210594415664673,0.0,12.803034543991089,1657778393,4907
354000,353,147.35897827148438,-21616.9921875,61764560.0,61983156.0,-0.515753984451294,4.2067413330078125,18911.125,19048.4453125,21530.66015625,354000,1.5843369960784912,11.314973592758179,0.0,12.89931058883667,1657778406,4920
355000,354,140.48565673828125,-20839.646484375,42817120.0,41690488.0,9.53579330444336,4.322414398193359,18196.57421875,17942.869140625,21610.548828125,355000,1.6978237628936768,11.317408561706543,0.0,13.01523232460022,1657778419,4933
356000,355,149.09414672851562,-22572.36328125,65492272.0,64933824.0,-3.201280117034912,4.61208438873291,19202.544921875,19114.609375,21934.97265625,356000,1.6963460445404053,11.241913795471191,0.0,12.938259840011597,1657778432,4946
357000,356,143.42291259765625,-20202.86328125,27424398.0,29539388.0,5.533142566680908,4.696541786193848,17340.17578125,17414.68359375,20350.11328125,357000,1.6077489852905273,11.210073232650757,0.0,12.817822217941284,1657778445,4959
358000,357,137.2593536376953,-21311.86328125,87299168.0,86676856.0,15.193925857543945,4.758099555969238,18318.2734375,18218.796875,20383.953125,358000,1.646712303161621,11.236149787902832,0.0,12.882862091064453,1657778458,4972
359000,358,159.2672119140625,-22106.15625,96172608.0,91125832.0,-18.169395446777344,4.397930145263672,19094.853515625,18990.65234375,20910.86328125,359000,1.6385080814361572,11.2328782081604,0.0,12.871386289596558,1657778470,4984
360000,359,162.33724975585938,-23063.93359375,122424512.0,123682752.0,-23.60834503173828,4.661238670349121,19769.046875,19635.146484375,23460.412109375,360000,0.07124144,10.0,1.7208983898162842,11.322110652923584,0.08478212356567383,13.127791166305542,1657778484,4998
361000,360,143.07180786132812,-22108.111328125,33509824.0,33052028.0,6.092752456665039,4.716329097747803,19389.935546875,19503.205078125,23460.521484375,361000,1.6574859619140625,11.294526815414429,0.0,12.952012777328491,1657778497,5011
362000,361,139.34963989257812,-20127.072265625,68382192.0,70271992.0,11.959278106689453,4.774207592010498,17334.060546875,17336.90625,20547.59375,362000,1.7025809288024902,11.25425386428833,0.0,12.95683479309082,1657778510,5024
363000,362,151.19647216796875,-27040.033203125,76809648.0,74435096.0,-7.0661492347717285,5.38612174987793,22949.984375,22975.96484375,25847.3359375,363000,1.6859571933746338,11.301114797592163,0.0,12.987071990966797,1657778523,5037
364000,363,130.70718383789062,-23262.015625,59424892.0,62026452.0,27.963478088378906,5.5639472007751465,20358.87109375,20197.609375,23482.8125,364000,1.539618730545044,11.248931407928467,0.0,12.78855013847351,1657778535,5049
365000,364,140.2261962890625,-24667.603515625,102565576.0,99641808.0,11.413208961486816,5.391932487487793,21857.212890625,21770.53515625,24429.33984375,365000,1.692286729812622,11.348209619522095,0.0,13.040496349334717,1657778548,5062
366000,365,139.56044006347656,-26940.86328125,87960584.0,89019792.0,12.806632995605469,5.592484474182129,23144.86328125,23045.283203125,26789.50390625,366000,1.7103314399719238,11.293914794921875,0.0,13.004246234893799,1657778561,5075
367000,366,139.24977111816406,-26851.0078125,75233824.0,74410384.0,13.819541931152344,5.948348522186279,23562.3671875,23482.671875,28430.2578125,367000,1.6766645908355713,11.324261903762817,0.0,13.000926494598389,1657778574,5088
368000,367,162.5592803955078,-27966.248046875,82889216.0,82629696.0,-27.247034072875977,5.761373043060303,24089.396484375,24160.640625,27948.97265625,368000,1.6665794849395752,11.26746654510498,0.0,12.934046030044556,1657778587,5101
369000,368,144.62368774414062,-25816.3359375,42609448.0,41922872.0,4.005422592163086,5.395467281341553,23151.23828125,23004.234375,27507.6875,369000,1.6996960639953613,11.25863265991211,0.0,12.95832872390747,1657778600,5114
370000,369,152.34884643554688,-23883.0546875,54870764.0,56602656.0,-8.826135635375977,5.207520008087158,20724.880859375,20697.20703125,25723.388671875,370000,0.2,10.0,1.607417106628418,11.318770408630371,0.09374856948852539,13.019936084747314,1657778613,5127
371000,370,150.13461303710938,-24704.3046875,157679968.0,161609760.0,-5.157177925109863,5.1822357177734375,21299.953125,21389.8046875,24246.0390625,371000,1.5422372817993164,11.277636766433716,0.0,12.819874048233032,1657778626,5140
372000,371,160.006591796875,-25934.083984375,108789464.0,108250848.0,-21.788488388061523,5.339797496795654,22077.51953125,21959.76953125,24967.0390625,372000,1.6897060871124268,11.181398630142212,0.0,12.871104717254639,1657778639,5153
373000,372,142.8377685546875,-27647.0,96604416.0,97005440.0,7.09623384475708,5.500916957855225,23708.91796875,23702.732421875,26667.203125,373000,1.6251273155212402,11.229663610458374,0.0,12.854790925979614,1657778652,5166
374000,373,128.82139587402344,-25680.572265625,66286476.0,69972832.0,30.780357360839844,5.436951637268066,22303.330078125,22367.009765625,26578.056640625,374000,1.6584444046020508,11.311876058578491,0.0,12.970320463180542,1657778665,5179
375000,374,138.728515625,-25833.849609375,96401888.0,99394488.0,14.3517427444458,5.6694231033325195,22237.546875,22202.42578125,25582.8828125,375000,1.7146437168121338,11.269552946090698,0.0,12.984196662902832,1657778678,5192
376000,375,140.76889038085938,-26795.18359375,66058192.0,67738032.0,10.982704162597656,5.8273468017578125,23453.77734375,23413.72265625,27275.6796875,376000,1.6235406398773193,11.292139053344727,0.0,12.915679693222046,1657778691,5205
377000,376,157.3414764404297,-25986.814453125,116397376.0,117484640.0,-17.920429229736328,5.656866073608398,21998.126953125,22087.66015625,26732.541015625,377000,1.6499245166778564,11.266859769821167,0.0,12.916784286499023,1657778704,5218
378000,377,145.100830078125,-28422.984375,87723216.0,87399928.0,3.2961387634277344,5.672178268432617,24151.61328125,24226.7890625,28031.84765625,378000,1.5553948879241943,11.499002456665039,0.0,13.054397344589233,1657778717,5231
379000,378,139.7889862060547,-26969.013671875,135205344.0,136068816.0,12.640507698059082,5.771583080291748,23039.220703125,23065.57421875,26985.5703125,379000,1.6729919910430908,11.273762226104736,0.0,12.946754217147827,1657778730,5244
380000,379,151.3576202392578,-29066.640625,136370976.0,141314080.0,-7.705440521240234,5.860716342926025,25051.671875,25052.412109375,29813.01953125,380000,0.12618595,10.0,1.6073338985443115,11.332696914672852,0.08929133415222168,13.029322147369385,1657778743,5257
381000,380,147.18260192871094,-26944.12109375,82254608.0,82270080.0,-0.31760644912719727,5.693305015563965,23258.349609375,23218.140625,26204.2890625,381000,1.6098911762237549,11.307973861694336,0.0,12.91786503791809,1657778756,5270
382000,381,156.32882690429688,-33435.87109375,189724736.0,195411664.0,-16.594154357910156,5.92277193069458,29288.642578125,28962.052734375,31416.26953125,382000,1.7003872394561768,11.332828283309937,0.0,13.033215522766113,1657778769,5283
383000,382,155.9283905029297,-26538.44140625,74651064.0,79590872.0,-16.158750534057617,6.1093316078186035,22054.150390625,22029.388671875,26447.671875,383000,1.6893064975738525,11.357325315475464,0.0,13.046631813049316,1657778782,5296
384000,383,138.73623657226562,-27780.294921875,92869840.0,93078848.0,15.044346809387207,6.175065040588379,23993.77734375,23916.880859375,28436.91796875,384000,1.6594839096069336,11.254324197769165,0.0,12.913808107376099,1657778795,5309
385000,384,167.23355102539062,-31499.1953125,170708880.0,174995760.0,-36.110740661621094,5.957766532897949,27164.9921875,27016.248046875,29563.703125,385000,1.7539265155792236,11.28225326538086,0.0,13.036179780960083,1657778808,5322
386000,385,132.1031494140625,-25940.9765625,92301680.0,93560992.0,26.95272445678711,6.106112957000732,22693.0078125,22677.14453125,26995.22265625,386000,1.6432373523712158,11.256763219833374,0.0,12.90000057220459,1657778821,5335
387000,386,154.8998260498047,-31299.423828125,105544032.0,108772752.0,-14.00471305847168,5.88722562789917,27646.001953125,27482.353515625,32278.671875,387000,1.8059446811676025,11.313480854034424,0.0,13.119425535202026,1657778834,5348
388000,387,157.56402587890625,-32052.248046875,206160192.0,195984176.0,-18.108461380004883,5.5520172119140625,27572.62109375,27606.408203125,29640.576171875,388000,1.6993029117584229,11.368650913238525,0.0,13.067953824996948,1657778847,5361
389000,388,138.32388305664062,-27237.20703125,80083768.0,83047056.0,15.222535133361816,5.780767917633057,23487.0859375,23456.4140625,27827.5234375,389000,1.664205551147461,11.61220645904541,0.0,13.276412010192871,1657778860,5374
390000,389,150.99200439453125,-32011.8671875,137383344.0,133689496.0,-7.217865943908691,6.098764896392822,27540.05078125,27546.138671875,31831.296875,390000,0.060206003,10.0,1.6842458248138428,11.302581787109375,0.08378052711486816,13.070608139038086,1657778873,5387
391000,390,143.974365234375,-33976.90625,68202536.0,69165912.0,5.737665176391602,6.6615777015686035,29623.84375,29522.0078125,32151.1875,391000,1.6990046501159668,11.267292022705078,0.0,12.966296672821045,1657778886,5400
392000,391,146.15280151367188,-30559.439453125,103933080.0,98759520.0,1.581559181213379,6.4675703048706055,26068.216796875,26225.7109375,29086.14453125,392000,1.6234076023101807,11.36127758026123,0.0,12.984685182571411,1657778899,5413
393000,392,159.49795532226562,-35143.86328125,107748496.0,108888592.0,-22.605649948120117,6.102799892425537,31642.5078125,31638.05078125,35634.8046875,393000,1.5831444263458252,11.31420373916626,0.0,12.897348165512085,1657778912,5426
394000,393,149.18487548828125,-33528.69140625,195559584.0,196445072.0,-3.8588156700134277,5.848284721374512,29385.041015625,29386.40234375,31384.4765625,394000,1.6847548484802246,11.272249221801758,0.0,12.957004070281982,1657778925,5439
395000,394,140.50914001464844,-28285.908203125,103701856.0,104143712.0,10.852895736694336,5.322941303253174,24910.849609375,24941.6953125,30200.26953125,395000,1.6216590404510498,11.27922534942627,0.0,12.90088438987732,1657778938,5452
396000,395,143.24929809570312,-24763.1484375,79580080.0,80479904.0,6.047730445861816,5.01499080657959,21725.94140625,21826.64453125,26469.921875,396000,1.5929694175720215,11.318718910217285,0.0,12.911688327789307,1657778951,5465
397000,396,142.0083770751953,-25792.828125,94101312.0,92832832.0,7.973692417144775,4.9402594566345215,22590.0390625,22746.595703125,27247.962890625,397000,1.704251766204834,11.27470850944519,0.0,12.978960275650024,1657778964,5478
398000,397,152.82437133789062,-28867.23046875,154876640.0,151502112.0,-9.470712661743164,5.0837483406066895,24539.62890625,24399.734375,28725.95703125,398000,1.752925157546997,11.35792589187622,0.0,13.110851049423218,1657778977,5491
399000,398,148.20835876464844,-26501.71875,74992960.0,81191288.0,-2.0192747116088867,5.317944049835205,22242.427734375,22003.11328125,27620.91015625,399000,1.6270349025726318,11.337990283966064,0.0,12.965025186538696,1657778990,5504
400000,399,159.7769012451172,-30676.830078125,95968888.0,92144248.0,-21.97716522216797,5.5849175453186035,27131.41015625,27258.26953125,28754.26953125,400000,0.0,10.0,1.6956632137298584,11.288455724716187,0.0937492847442627,13.077868223190308,1657779003,5517
401000,400,156.73257446289062,-30934.85546875,111112512.0,112339160.0,-16.816791534423828,5.628749370574951,26768.0859375,26983.47265625,31296.931640625,401000,1.6453673839569092,11.244384765625,0.0,12.88975214958191,1657779016,5530
402000,401,138.25070190429688,-27719.0078125,64894948.0,66949104.0,15.16335678100586,5.658147811889648,25023.087890625,24834.529296875,27820.009765625,402000,1.5542190074920654,11.248686790466309,0.0,12.802905797958374,1657779029,5543
403000,402,151.05548095703125,-29445.7109375,147200704.0,139076336.0,-7.0872979164123535,5.740733623504639,25473.578125,25263.41015625,27903.400390625,403000,1.5905256271362305,11.164617538452148,0.0,12.755143165588379,1657779042,5556
404000,403,155.80584716796875,-31523.734375,148500928.0,147049632.0,-15.80465316772461,6.018213748931885,26972.685546875,27179.10546875,32099.16015625,404000,1.7176191806793213,11.284105062484741,0.0,13.001724243164062,1657779055,5569
405000,404,141.84494018554688,-34290.3828125,136423264.0,131347352.0,9.398748397827148,6.191705226898193,30043.716796875,30081.478515625,33608.3984375,405000,1.6877164840698242,11.329394817352295,0.0,13.01711130142212,1657779068,5582
406000,405,133.94686889648438,-28107.958984375,206306240.0,212454816.0,23.50788116455078,6.055325508117676,24642.859375,24546.1953125,28488.826171875,406000,1.6788697242736816,11.305009126663208,0.0,12.98387885093689,1657779081,5595
407000,406,143.42324829101562,-29704.10546875,139634288.0,136207136.0,6.1804633140563965,5.629137992858887,25887.3828125,25865.11328125,30184.123046875,407000,1.7122387886047363,11.330000877380371,0.0,13.042239665985107,1657779094,5608
408000,407,136.570068359375,-31995.25,100297672.0,102891728.0,18.658790588378906,5.983252048492432,27710.7890625,27852.15234375,31815.626953125,408000,1.587674856185913,11.292226552963257,0.0,12.87990140914917,1657779107,5621
409000,408,144.11770629882812,-33616.4296875,195269968.0,191855072.0,5.330863952636719,6.356739044189453,29514.15625,29423.390625,32620.685546875,409000,1.6411809921264648,11.353129625320435,0.0,12.9943106174469,1657779120,5634
410000,409,142.64675903320312,-32110.31640625,142914432.0,137778976.0,7.973150253295898,6.243531227111816,28124.890625,28026.57421875,32691.919921875,410000,0.06666667,10.0,1.7486555576324463,11.332151651382446,0.08477187156677246,13.165579080581665,1657779133,5647
